assets/luts/0000.CUBE
#Created by: Adobe Photoshop Export Color Lookup Plugin
TITLE "Untitled-1"
#LUT size
LUT_3D_SIZE 5
#data domain
#LUT data points
DOMAIN_MIN 0.000000 0.000000 0.000000
DOMAIN_MAX 0.903226 0.903226 0.903226
0.000000 0.066681 0.117706
0.162384 0.022308 0.088989
0.360840 0.000000 0.000000
0.584351 0.000000 0.019531
0.905090 0.000000 0.096100
0.000000 0.162964 0.092499
0.135101 0.164795 0.084686
0.363892 0.157928 0.000000
0.632050 0.148285 0.000000
0.918579 0.218536 0.049591
0.000000 0.394531 0.198975
0.178711 0.403839 0.196259
0.399628 0.435760 0.219696
0.676483 0.465637 0.162292
0.980530 0.469147 0.000000
0.250366 0.704681 0.378479
0.363342 0.710785 0.376984
0.548889 0.706238 0.366516
0.756989 0.709229 0.377838
0.979889 0.699402 0.317047
0.515228 0.903503 0.464142
0.568542 0.900452 0.458405
0.715332 0.891266 0.430969
0.880249 0.882019 0.434875
1.000000 0.865112 0.436249
0.000000 0.066681 0.209961
0.063995 0.072388 0.202728
0.207855 0.123169 0.215729
0.473145 0.145538 0.264923
0.833801 0.160004 0.319672
0.000000 0.165375 0.203644
0.000000 0.182831 0.218842
0.273132 0.204559 0.243805
0.550049 0.232300 0.268738
0.887665 0.255463 0.315948
0.000000 0.405945 0.319000
0.000000 0.423981 0.309296
0.329285 0.453552 0.335205
0.633820 0.489716 0.275604
0.954529 0.492859 0.233887
0.074982 0.716858 0.448456
0.236542 0.718597 0.444824
0.486298 0.717102 0.446564
0.714600 0.728149 0.463165
0.962250 0.718414 0.393005
0.421570 0.913727 0.484375
0.502930 0.910461 0.498383
0.662537 0.900177 0.501312
0.849426 0.887421 0.489746
0.993103 0.873840 0.492554
0.000000 0.072388 0.319244
0.000000 0.094391 0.319244
0.184753 0.150574 0.339478
0.369232 0.247742 0.402771
0.610260 0.393982 0.523804
0.000000 0.181915 0.328888
0.000000 0.201172 0.342804
0.173553 0.246216 0.374146
0.380768 0.337830 0.448975
0.680969 0.445557 0.553802
0.000000 0.420959 0.445648
0.000000 0.436646 0.456055
0.135681 0.486450 0.501251
0.503662 0.532928 0.554596
0.824341 0.566498 0.581818
0.000000 0.724854 0.607330
0.117004 0.730530 0.613220
0.316010 0.741638 0.598297
0.618256 0.745972 0.605774
0.912811 0.741913 0.514435
0.380280 0.918213 0.648743
0.421600 0.916138 0.640900
0.537750 0.923248 0.603424
0.765076 0.907928 0.611420
0.943115 0.893463 0.611298
0.000000 0.101379 0.422791
0.000000 0.120575 0.418884
0.151062 0.184723 0.462219
0.364166 0.275146 0.532013
0.608337 0.426422 0.646851
0.000000 0.210480 0.455048
0.000000 0.218445 0.462006
0.142944 0.274170 0.503540
0.382019 0.364349 0.577515
0.628815 0.493195 0.680481
0.000000 0.442780 0.579895
0.000000 0.464935 0.597260
0.129028 0.505035 0.630005
0.423859 0.569946 0.687561
0.662750 0.636566 0.731812
0.000000 0.733978 0.732666
0.060364 0.738525 0.721527
0.304901 0.755371 0.738647
0.496826 0.777191 0.751587
0.791168 0.781281 0.771515
0.361908 0.919830 0.771973
0.412628 0.918060 0.771790
0.511169 0.925079 0.772888
0.634796 0.932892 0.765076
0.869965 0.918304 0.757904
0.000000 0.146027 0.544983
0.000000 0.165100 0.554810
0.159332 0.224548 0.600647
0.383698 0.323395 0.686127
0.623169 0.455597 0.790009
0.000000 0.246887 0.590729
0.000000 0.262329 0.595673
0.159302 0.316010 0.648010
0.394592 0.407104 0.726868
0.647003 0.522552 0.823364
0.000000 0.481781 0.721710
0.000000 0.499298 0.745483
0.144043 0.537842 0.777283
0.418610 0.598877 0.828583
0.679413 0.651550 0.866669
0.000000 0.743347 0.865448
0.002594 0.748993 0.868896
0.304138 0.766846 0.877228
0.497864 0.785461 0.888672
0.729065 0.803223 0.893951
0.371948 0.925323 0.890045
0.420166 0.927094 0.893036
0.529541 0.931458 0.896545
0.637360 0.931396 0.890045
0.779358 0.939209 0.901764
