assets/luts/0000.CUBE
#Created by: Adobe Photoshop Export Color Lookup Plugin
TITLE "Untitled-1"
#LUT size
LUT_3D_SIZE 32
#data domain
DOMAIN_MIN 0.0 0.0 0.0
DOMAIN_MAX 1.0 1.0 1.0
#LUT data points
0.000000 0.066681 0.117706
0.000000 0.064636 0.115692
0.002075 0.062378 0.113922
0.034515 0.056305 0.115936
0.067444 0.050262 0.116943
0.103912 0.044220 0.110870
0.138031 0.036560 0.103241
0.162384 0.022308 0.088989
0.189331 0.010162 0.077881
0.223785 0.004120 0.075836
0.254272 0.000000 0.067291
0.276489 0.000000 0.044952
0.301849 0.000000 0.025024
0.332245 0.000000 0.008881
0.360840 0.000000 0.000000
0.387207 0.000000 0.000000
0.417480 0.000000 0.001038
0.451385 0.000000 0.003021
0.483368 0.000000 0.002808
0.513794 0.000000 0.000793
0.547913 0.000000 0.007446
0.584351 0.000000 0.019531
0.626282 0.000000 0.031738
0.670837 0.000000 0.043976
0.716949 0.000000 0.050140
0.763641 0.000000 0.054169
0.810211 0.000000 0.064728
0.856781 0.000000 0.076813
0.905090 0.000000 0.096100
0.953644 0.000000 0.116394
0.977661 0.000000 0.125275
1.000000 0.000000 0.133331
0.000000 0.078766 0.113678
0.000000 0.070709 0.107483
0.002350 0.068695 0.104675
0.038544 0.066406 0.091614
0.070984 0.060608 0.093872
0.103912 0.056305 0.096619
0.137634 0.049469 0.089386
0.160370 0.038574 0.076874
0.186279 0.025360 0.061554
0.217712 0.016205 0.047455
0.249512 0.009521 0.042847
0.274475 0.004028 0.028809
0.296722 0.002472 0.015106
0.322174 0.000000 0.008881
0.353485 0.000000 0.000000
0.383179 0.000000 0.000000
0.412445 0.000000 0.000000
0.445343 0.000000 0.001007
0.480652 0.000000 0.005219
0.513794 0.000000 0.006836
0.549133 0.000000 0.011017
0.586365 0.000000 0.021545
0.625580 0.000000 0.031036
0.668823 0.000000 0.041962
0.716431 0.000000 0.049622
0.763641 0.000000 0.054169
0.808594 0.000000 0.066345
0.854736 0.000000 0.078857
0.906586 0.000000 0.091064
0.955658 0.000000 0.110352
0.977783 0.000000 0.117310
1.000000 0.000000 0.125275
0.000000 0.090881 0.109497
0.000000 0.083069 0.103333
0.001190 0.075256 0.097534
0.037628 0.073242 0.083405
0.074097 0.071228 0.070435
0.106506 0.067200 0.074493
0.137634 0.062256 0.074219
0.159973 0.052155 0.062103
0.184265 0.042023 0.049591
0.214661 0.031799 0.031281
0.244110 0.022156 0.016296
0.270355 0.014069 0.006195
0.295471 0.007446 0.000000
0.317810 0.003387 0.000000
0.344177 0.000916 0.000000
0.376587 0.000916 0.000000
0.408386 0.002075 0.000000
0.440308 0.002075 0.000000
0.474854 0.002075 0.003448
0.511322 0.002075 0.009521
0.549011 0.001831 0.016418
0.587494 0.001831 0.024475
0.627472 0.001831 0.033173
0.667969 0.001831 0.041382
0.714539 0.000641 0.047852
0.763245 0.000641 0.053894
0.808472 0.001709 0.066467
0.852997 0.001709 0.080597
0.904297 0.000000 0.092560
0.956909 0.000000 0.104797
0.979675 0.001190 0.111664
1.000000 0.001190 0.117706
0.000000 0.103149 0.103302
0.000000 0.099091 0.097260
0.001190 0.091522 0.091461
0.019470 0.087372 0.091461
0.056458 0.085602 0.077332
0.096436 0.085358 0.064392
0.128845 0.080933 0.061768
0.159973 0.074341 0.033722
0.183838 0.064270 0.024719
0.212494 0.054138 0.021210
0.243561 0.043976 0.008789
0.274384 0.034393 0.006195
0.301453 0.027100 0.000000
0.327881 0.021698 0.000000
0.351135 0.017609 0.000000
0.378601 0.015045 0.000000
0.407715 0.024323 0.000000
0.436279 0.034515 0.000000
0.471802 0.034515 0.004425
0.509308 0.034515 0.011536
0.546997 0.032043 0.015106
0.585480 0.030212 0.020447
0.626678 0.030212 0.034088
0.667969 0.030212 0.045410
0.714539 0.016632 0.050537
0.763245 0.010742 0.055939
0.806976 0.023865 0.068481
0.850983 0.028076 0.082611
0.899017 0.005096 0.087952
0.950836 0.000000 0.098602
0.978912 0.017120 0.110870
1.000000 0.019470 0.117706
0.000000 0.115631 0.097412
0.000000 0.111847 0.091858
0.001434 0.107941 0.086212
0.019989 0.103912 0.086212
0.039307 0.100281 0.085938
0.079803 0.100281 0.071808
0.118500 0.100128 0.057159
0.150909 0.094086 0.026764
0.182526 0.087524 0.000000
0.210785 0.077423 0.000000
0.240906 0.068359 0.000000
0.273315 0.058289 0.000000
0.304962 0.049744 0.000000
0.333374 0.043701 0.000000
0.360962 0.038239 0.000000
0.385315 0.034058 0.000000
0.412598 0.037415 0.000000
0.438568 0.055420 0.000000
0.470093 0.065094 0.003387
0.508575 0.065094 0.011475
0.546783 0.064453 0.015564
0.585266 0.060425 0.017578
0.626495 0.060425 0.027191
0.669006 0.060425 0.043457
0.714539 0.051819 0.053772
0.763245 0.033508 0.057800
0.806976 0.041260 0.067902
0.849487 0.057556 0.082031
0.898041 0.039795 0.090759
0.946625 0.013428 0.094818
0.973633 0.027039 0.104950
1.000000 0.045319 0.117188
0.000000 0.129761 0.093353
0.000000 0.127716 0.091339
0.001434 0.124084 0.086212
0.023773 0.122070 0.086212
0.043335 0.118561 0.085938
0.069580 0.118561 0.083923
0.108124 0.118958 0.070587
0.138672 0.120453 0.059174
0.170563 0.114410 0.028259
0.200714 0.107819 0.000000
0.231598 0.100342 0.000000
0.267273 0.096771 0.000000
0.300476 0.088226 0.000000
0.333374 0.082184 0.000000
0.363556 0.076050 0.000000
0.393402 0.070526 0.000000
0.426788 0.062347 0.000000
0.462769 0.061462 0.000000
0.490082 0.076233 0.000000
0.522705 0.083252 0.003387
0.559937 0.089539 0.006500
0.597382 0.092834 0.007507
0.638672 0.098389 0.008148
0.681244 0.102936 0.017090
0.719269 0.118011 0.042358
0.763245 0.114624 0.055786
0.806976 0.112732 0.054962
0.849487 0.124420 0.063873
0.902527 0.124756 0.092194
0.952667 0.104645 0.103027
0.974792 0.106720 0.103271
1.000000 0.122284 0.113159
0.000000 0.144684 0.090485
0.000000 0.142670 0.088470
0.001709 0.140656 0.085815
0.024536 0.138611 0.084259
0.048431 0.137390 0.085022
0.075195 0.137634 0.083527
0.100647 0.138428 0.082672
0.131073 0.140442 0.072601
0.160309 0.141174 0.062225
0.190704 0.135101 0.029816
0.223053 0.131531 0.003937
0.259521 0.129517 0.003937
0.295197 0.126312 0.000000
0.329651 0.120270 0.000000
0.364349 0.117279 0.000000
0.396759 0.111115 0.000000
0.432526 0.102325 0.000000
0.474365 0.090424 0.000000
0.512360 0.088989 0.000000
0.540741 0.101074 0.000000
0.575256 0.109680 0.000000
0.611725 0.119904 0.000000
0.653137 0.128479 0.000000
0.695770 0.138550 0.000000
0.733063 0.154663 0.015594
0.769501 0.174988 0.043976
0.811249 0.180908 0.048218
0.853760 0.182922 0.046204
0.904510 0.186523 0.073212
0.959137 0.184509 0.103638
0.979675 0.188538 0.110291
1.000000 0.192596 0.110291
0.000000 0.162964 0.092499
0.000000 0.160950 0.090485
0.001709 0.158936 0.087830
0.028076 0.156921 0.075714
0.052490 0.155670 0.074951
0.086914 0.159729 0.080994
0.112915 0.160767 0.080658
0.135101 0.164795 0.084686
0.163940 0.165771 0.076172
0.188690 0.163483 0.070313
0.221039 0.160675 0.041809
0.257507 0.163940 0.024231
0.293182 0.161133 0.016388
0.327637 0.156708 0.000000
0.363892 0.157928 0.000000
0.400818 0.163849 0.000000
0.434021 0.155701 0.000000
0.470337 0.145172 0.000000
0.514862 0.138702 0.000000
0.555023 0.141724 0.000000
0.592072 0.145142 0.000000
0.632050 0.148285 0.000000
0.675354 0.152954 0.000000
0.720001 0.158875 0.000000
0.755066 0.170471 0.000000
0.789703 0.187073 0.015594
0.832672 0.194275 0.021088
0.875946 0.197052 0.019836
0.918579 0.218536 0.049591
0.969360 0.225006 0.081299
0.982330 0.230530 0.106049
1.000000 0.235107 0.112305
0.000000 0.184387 0.096649
0.000000 0.182343 0.093597
0.001556 0.180450 0.091705
0.027557 0.178833 0.081940
0.055725 0.177063 0.071381
0.090942 0.180573 0.076660
0.122253 0.185028 0.082306
0.144196 0.189209 0.086365
0.168518 0.192200 0.088837
0.192871 0.190186 0.084808
0.217987 0.190125 0.083344
0.254456 0.194153 0.063171
0.291168 0.197662 0.042419
0.325623 0.193634 0.022095
0.360840 0.193359 0.004700
0.399292 0.203461 0.004700
0.438049 0.205811 0.000000
0.471954 0.195892 0.000000
0.511322 0.191345 0.000000
0.558014 0.189331 0.000000
0.602661 0.189911 0.000000
0.645172 0.187897 0.000000
0.690948 0.188599 0.000000
0.737488 0.190613 0.000000
0.777222 0.195465 0.000000
0.809662 0.207581 0.000000
0.852356 0.211090 0.000000
0.896881 0.215118 0.000000
0.937683 0.232147 0.021149
0.980316 0.256500 0.055573
0.989899 0.262695 0.074310
1.000000 0.268738 0.098663
0.000000 0.214783 0.106873
0.000000 0.212646 0.100800
0.001556 0.210724 0.097900
0.025909 0.210724 0.097900
0.053711 0.209351 0.089661
0.094208 0.209351 0.089661
0.126282 0.213287 0.094574
0.144440 0.219482 0.098602
0.168518 0.222595 0.101074
0.198914 0.222595 0.099060
0.223267 0.222534 0.099579
0.248383 0.226563 0.107697
0.285645 0.231384 0.086700
0.323578 0.236145 0.064636
0.358032 0.233917 0.042542
0.393250 0.235870 0.023010
0.434540 0.240784 0.013702
0.475983 0.238403 0.000000
0.513611 0.235046 0.000000
0.556000 0.235870 0.000000
0.601349 0.240051 0.000000
0.645172 0.244537 0.000000
0.691803 0.245239 0.000000
0.739502 0.247253 0.000000
0.786163 0.243286 0.000000
0.825928 0.246033 0.000000
0.869751 0.245117 0.000000
0.915192 0.245514 0.000000
0.950928 0.251312 0.000000
0.990417 0.268616 0.021149
0.993164 0.272064 0.023346
1.000000 0.276825 0.039886
0.000000 0.245819 0.118988
0.000000 0.246338 0.116852
0.000000 0.244080 0.110901
0.018097 0.243011 0.109863
0.048431 0.243011 0.109344
0.094788 0.243011 0.108582
0.131012 0.243408 0.108582
0.149170 0.249054 0.112091
0.168915 0.254700 0.116638
0.198914 0.254974 0.115143
0.230621 0.256897 0.115082
0.254974 0.260956 0.125183
0.283478 0.263824 0.129272
0.321960 0.269867 0.106934
0.358612 0.275787 0.088959
0.393066 0.275787 0.064728
0.431763 0.276428 0.042389
0.475586 0.276428 0.024384
0.518280 0.279510 0.009796
0.558929 0.281525 0.009796
0.601288 0.286011 0.003906
0.645813 0.294067 0.003906
0.694427 0.296692 0.000000
0.743011 0.298706 0.000000
0.789490 0.299316 0.000000
0.836151 0.293274 0.000000
0.884033 0.286865 0.000000
0.930603 0.282806 0.000000
0.963348 0.287628 0.000000
0.997772 0.293671 0.000000
1.000000 0.286804 0.000000
1.000000 0.288818 0.000000
0.000000 0.278107 0.135132
0.000000 0.284271 0.141205
0.000000 0.284698 0.139160
0.000000 0.280670 0.135132
0.024078 0.279633 0.133575
0.094971 0.279633 0.129547
0.137054 0.279999 0.128754
0.155365 0.282013 0.128754
0.175079 0.287140 0.132782
0.199310 0.291168 0.138855
0.230621 0.293365 0.139313
0.265045 0.299438 0.143341
0.293304 0.301910 0.148743
0.328003 0.302277 0.145416
0.364655 0.309265 0.129517
0.399109 0.316284 0.119354
0.437469 0.317322 0.096283
0.479767 0.318970 0.074982
0.522888 0.323395 0.055786
0.564972 0.330078 0.040192
0.606750 0.333435 0.028961
0.649872 0.338745 0.015991
0.699951 0.339874 0.007782
0.751221 0.339203 0.000000
0.796783 0.345825 0.000000
0.842224 0.348022 0.000000
0.892059 0.338593 0.000000
0.940674 0.331390 0.000000
0.967896 0.336243 0.000000
0.997772 0.342377 0.000000
1.000000 0.318085 0.000000
1.000000 0.309143 0.000000
0.000000 0.312836 0.152893
0.000000 0.317413 0.157379
0.001038 0.323059 0.162811
0.006226 0.319672 0.158752
0.011993 0.316681 0.155518
0.076141 0.317719 0.153015
0.142334 0.318115 0.149780
0.166077 0.320129 0.149780
0.183868 0.323700 0.151855
0.207062 0.328247 0.158173
0.236511 0.331635 0.162903
0.271332 0.337433 0.166809
0.304993 0.343506 0.170074
0.339447 0.343506 0.168060
0.373108 0.345581 0.167999
0.407562 0.353638 0.159912
0.445099 0.360992 0.152496
0.487061 0.362976 0.130524
0.528564 0.365967 0.107910
0.571075 0.374023 0.087738
0.614380 0.378876 0.069550
0.656891 0.383057 0.051239
0.703217 0.387665 0.039490
0.755951 0.385498 0.027374
0.802582 0.385529 0.002350
0.847137 0.393738 0.002350
0.898102 0.391815 0.000000
0.948700 0.381592 0.000000
0.974091 0.380157 0.000000
0.998444 0.386322 0.000000
1.000000 0.369080 0.000000
1.000000 0.342712 0.000000
0.000000 0.351440 0.173218
0.000000 0.353455 0.175232
0.001038 0.357513 0.179077
0.017181 0.355499 0.175049
0.028137 0.353149 0.171783
0.072784 0.357178 0.173798
0.132233 0.358612 0.172089
0.178802 0.360626 0.172089
0.202026 0.364197 0.174194
0.218292 0.372284 0.182251
0.246735 0.376190 0.187256
0.287231 0.378204 0.189301
0.321289 0.384003 0.192413
0.353699 0.390045 0.194427
0.387238 0.391876 0.195129
0.419800 0.396149 0.198395
0.457062 0.404236 0.193451
0.497162 0.411652 0.189331
0.538330 0.413666 0.166046
0.579132 0.416687 0.142365
0.622894 0.421021 0.124664
0.666962 0.423553 0.108032
0.710938 0.431732 0.098022
0.757965 0.438232 0.090210
0.804626 0.433197 0.044922
0.849152 0.432220 0.008392
0.901825 0.435425 0.003510
0.954742 0.432312 0.000000
0.977203 0.423950 0.000000
0.998444 0.422791 0.000000
1.000000 0.415527 0.000000
1.000000 0.397339 0.000000
0.000000 0.394531 0.198975
0.001831 0.394745 0.198273
0.004547 0.396637 0.200287
0.030884 0.395386 0.198578
0.050446 0.394135 0.194275
0.094452 0.398193 0.193665
0.136353 0.401825 0.195709
0.178711 0.403839 0.196259
0.222687 0.405334 0.196259
0.242889 0.411865 0.202759
0.261078 0.419922 0.211487
0.299225 0.422729 0.214539
0.338928 0.424744 0.214996
0.371735 0.430542 0.216766
0.399628 0.435760 0.219696
0.432037 0.439789 0.223724
0.470154 0.444946 0.229218
0.510010 0.453003 0.227234
0.550232 0.459595 0.220276
0.590729 0.461609 0.195923
0.631927 0.463623 0.178436
0.676483 0.465637 0.162292
0.719208 0.471313 0.150208
0.763885 0.481415 0.144135
0.806641 0.482239 0.114136
0.851166 0.476166 0.057343
0.900208 0.474823 0.028717
0.954834 0.476837 0.022675
0.980530 0.469147 0.000000
0.998810 0.461090 0.000000
1.000000 0.452942 0.000000
1.000000 0.444733 0.000000
0.000000 0.443115 0.231415
0.004028 0.441101 0.227356
0.008606 0.441162 0.226654
0.051117 0.441162 0.228668
0.080841 0.440704 0.226715
0.123505 0.444733 0.220520
0.164734 0.448395 0.219910
0.195007 0.450409 0.222076
0.234802 0.451904 0.222626
0.271393 0.451904 0.222626
0.293488 0.458405 0.229797
0.315704 0.466492 0.239868
0.353058 0.469269 0.241364
0.391541 0.471313 0.239349
0.419800 0.476257 0.242035
0.442139 0.480408 0.246063
0.480469 0.485443 0.252106
0.524139 0.491486 0.259644
0.564362 0.498474 0.254303
0.604858 0.504120 0.244629
0.645416 0.506134 0.227783
0.686707 0.508148 0.215027
0.728485 0.512909 0.201538
0.769928 0.519867 0.190704
0.811523 0.522491 0.169556
0.853180 0.520721 0.134308
0.899353 0.517914 0.095551
0.948761 0.517334 0.071228
0.977020 0.508789 0.028137
0.998810 0.499573 0.000000
1.000000 0.491486 0.000000
1.000000 0.483337 0.000000
0.019531 0.489288 0.260468
0.039032 0.488281 0.258484
0.043457 0.486389 0.254700
0.071594 0.486389 0.255829
0.111237 0.486145 0.257050
0.145416 0.487885 0.251678
0.188416 0.491913 0.245911
0.223175 0.494568 0.246124
0.253510 0.497650 0.249268
0.288544 0.499207 0.250793
0.323151 0.499207 0.250793
0.346863 0.505798 0.259003
0.373016 0.513092 0.264404
0.410767 0.515594 0.262390
0.444702 0.516693 0.264984
0.467377 0.520630 0.269257
0.496735 0.525726 0.273285
0.540558 0.531677 0.281219
0.578461 0.537689 0.291626
0.618958 0.543762 0.283569
0.654327 0.547333 0.275055
0.694977 0.549347 0.262970
0.735504 0.549988 0.245636
0.776001 0.556061 0.233398
0.815460 0.557617 0.216888
0.855957 0.557617 0.190491
0.901337 0.552917 0.154541
0.947906 0.550903 0.120117
0.974091 0.546967 0.084625
0.998444 0.536865 0.036072
1.000000 0.528687 0.010315
1.000000 0.520599 0.010315
0.057404 0.533112 0.286285
0.091858 0.533112 0.286285
0.111237 0.532227 0.284485
0.121338 0.532227 0.284485
0.147125 0.531952 0.284851
0.167419 0.529938 0.280823
0.202332 0.531769 0.275848
0.246857 0.535797 0.271790
0.281433 0.539520 0.273102
0.311829 0.545685 0.279175
0.345001 0.547150 0.280579
0.375397 0.547150 0.280579
0.402954 0.553070 0.284271
0.435364 0.559113 0.282257
0.468658 0.560669 0.284851
0.497040 0.560669 0.293060
0.526642 0.565582 0.297241
0.562531 0.571533 0.301208
0.600098 0.577545 0.312561
0.632996 0.583618 0.325409
0.667297 0.587189 0.317322
0.698944 0.589203 0.308777
0.739471 0.588470 0.289734
0.779968 0.587952 0.269257
0.818970 0.589539 0.255615
0.857941 0.589539 0.238434
0.903320 0.583008 0.200653
0.949890 0.576843 0.162079
0.975342 0.576569 0.134674
0.998444 0.572754 0.099884
1.000000 0.564545 0.055084
1.000000 0.556488 0.030304
0.112335 0.577423 0.312408
0.134491 0.579620 0.314636
0.166992 0.579620 0.314362
0.174225 0.579620 0.312408
0.186127 0.579620 0.312134
0.208069 0.578461 0.308960
0.229156 0.576843 0.305695
0.266510 0.579437 0.303101
0.307404 0.583466 0.300629
0.337799 0.589020 0.305511
0.370178 0.593231 0.307648
0.401947 0.593231 0.306274
0.428467 0.594788 0.307068
0.458893 0.600494 0.305695
0.489441 0.602905 0.305511
0.517822 0.602722 0.313110
0.548065 0.603760 0.319122
0.583771 0.609528 0.323090
0.616669 0.613342 0.328217
0.649078 0.619385 0.342346
0.681366 0.620758 0.346161
0.711792 0.622772 0.338104
0.742371 0.623138 0.332611
0.782867 0.621124 0.310303
0.825195 0.619507 0.290741
0.863678 0.619507 0.276611
0.905334 0.617432 0.253387
0.951874 0.609344 0.212891
0.976227 0.607208 0.181396
0.998566 0.607208 0.154999
1.000000 0.598541 0.118317
1.000000 0.590485 0.073761
0.181213 0.622070 0.338776
0.193329 0.626099 0.342804
0.213531 0.628326 0.344757
0.217712 0.628326 0.340729
0.226746 0.628326 0.338501
0.250977 0.628326 0.336487
0.273712 0.627563 0.334076
0.298065 0.627563 0.334076
0.331757 0.630157 0.333038
0.362152 0.634186 0.335083
0.394531 0.637756 0.336060
0.430969 0.637756 0.329987
0.458862 0.639313 0.329407
0.479187 0.643341 0.331421
0.507751 0.645447 0.331879
0.536011 0.643402 0.333893
0.566223 0.644226 0.339294
0.598145 0.646240 0.343292
0.630798 0.649780 0.348389
0.661194 0.651794 0.354462
0.693604 0.652893 0.358673
0.725891 0.651154 0.356262
0.754944 0.651794 0.353668
0.784882 0.651550 0.350800
0.828369 0.649506 0.330048
0.871735 0.647888 0.311035
0.911865 0.647888 0.293549
0.953918 0.645813 0.269531
0.977600 0.643005 0.236084
0.998566 0.641663 0.205597
1.000000 0.632202 0.173553
1.000000 0.622894 0.136475
0.223999 0.664185 0.360199
0.228668 0.664490 0.360504
0.241058 0.668274 0.364410
0.251801 0.668274 0.363708
0.258057 0.668549 0.359924
0.280365 0.669525 0.357910
0.306549 0.670288 0.356659
0.335144 0.671997 0.357513
0.358978 0.670959 0.356995
0.386505 0.672119 0.357574
0.416870 0.675507 0.360260
0.451538 0.676086 0.357147
0.483307 0.674530 0.350311
0.504547 0.676727 0.350037
0.526672 0.679871 0.350220
0.554291 0.678497 0.351593
0.581390 0.677521 0.353607
0.612671 0.679291 0.357361
0.643768 0.681305 0.362457
0.674164 0.683319 0.368530
0.708282 0.682861 0.369629
0.740692 0.680847 0.367615
0.772858 0.681427 0.370667
0.801270 0.681427 0.370667
0.830414 0.681152 0.370544
0.874939 0.679138 0.350372
0.916199 0.676270 0.328003
0.956696 0.676270 0.309692
0.978363 0.672058 0.281555
0.998688 0.670013 0.249146
1.000000 0.665314 0.221771
1.000000 0.655243 0.189331
0.250366 0.704681 0.378479
0.250366 0.702667 0.376465
0.255310 0.702728 0.376648
0.271454 0.702728 0.378662
0.284271 0.702972 0.378235
0.304596 0.704987 0.376221
0.328888 0.706757 0.374969
0.363342 0.710785 0.376984
0.391418 0.711456 0.377319
0.413757 0.707428 0.375305
0.441223 0.707916 0.376526
0.471497 0.709930 0.380554
0.501465 0.708984 0.376678
0.525818 0.704926 0.368591
0.548889 0.706238 0.366516
0.573242 0.708252 0.364502
0.599701 0.707916 0.365845
0.625641 0.707916 0.367828
0.656006 0.709686 0.372681
0.686401 0.711700 0.378754
0.720520 0.711243 0.379852
0.756989 0.709229 0.377838
0.789398 0.709930 0.381287
0.821564 0.711823 0.386963
0.848358 0.711823 0.389954
0.876953 0.711578 0.390869
0.918213 0.707916 0.367310
0.958710 0.704681 0.344147
0.979889 0.699402 0.317047
0.998688 0.694366 0.287628
1.000000 0.692230 0.262878
1.000000 0.687531 0.236023
0.289063 0.739685 0.392578
0.295898 0.740417 0.394684
0.296173 0.738403 0.393036
0.304962 0.737152 0.396301
0.320862 0.736908 0.396759
0.337769 0.736694 0.390320
0.360016 0.738708 0.389069
0.392517 0.741791 0.391083
0.421722 0.743744 0.392578
0.440613 0.739685 0.391418
0.464874 0.737610 0.389404
0.494476 0.739624 0.391266
0.522461 0.739319 0.389069
0.546814 0.735260 0.379822
0.574799 0.733978 0.379028
0.600983 0.735992 0.379303
0.623047 0.739014 0.380371
0.647949 0.739685 0.382721
0.676361 0.737488 0.383606
0.706757 0.738708 0.388885
0.734680 0.739502 0.389984
0.770508 0.737610 0.387970
0.804230 0.734131 0.388672
0.836639 0.736145 0.394745
0.865936 0.738129 0.397919
0.892181 0.738129 0.401947
0.924438 0.733398 0.396851
0.964935 0.729370 0.372528
0.980530 0.727692 0.357056
0.998810 0.721649 0.328674
1.000000 0.720703 0.304077
1.000000 0.718536 0.279877
0.333588 0.772125 0.404694
0.343689 0.774139 0.408722
0.350800 0.774872 0.411224
0.354950 0.772827 0.415253
0.363495 0.771332 0.416931
0.377625 0.769318 0.406860
0.396484 0.769135 0.401184
0.426880 0.771149 0.403198
0.454132 0.772125 0.404694
0.468262 0.768097 0.404694
0.489105 0.765991 0.403534
0.517487 0.768005 0.401520
0.544800 0.767700 0.397156
0.569153 0.763672 0.385040
0.597137 0.762360 0.383057
0.629578 0.764374 0.391144
0.653473 0.767395 0.394501
0.673340 0.771362 0.398468
0.700592 0.769897 0.399750
0.730988 0.765869 0.399750
0.758911 0.765869 0.400055
0.785278 0.765869 0.398041
0.818359 0.762512 0.398773
0.850769 0.758362 0.400787
0.880188 0.760468 0.403839
0.908447 0.762482 0.406006
0.939667 0.757477 0.403503
0.973145 0.751587 0.396851
0.987152 0.751068 0.384949
0.998810 0.749878 0.371307
1.000000 0.749512 0.346710
1.000000 0.748932 0.322388
0.385712 0.799957 0.419891
0.382324 0.800476 0.420929
0.392395 0.802490 0.424591
0.400604 0.803314 0.424530
0.404999 0.801544 0.428040
0.414185 0.800781 0.424133
0.428680 0.798340 0.415985
0.451263 0.796967 0.416901
0.479584 0.798462 0.415771
0.497711 0.796387 0.410797
0.517059 0.794281 0.410156
0.546295 0.796295 0.408142
0.570801 0.795990 0.407684
0.592987 0.791962 0.400604
0.617279 0.789734 0.392151
0.647308 0.791168 0.396667
0.678467 0.793152 0.404694
0.700745 0.796661 0.409607
0.719727 0.797333 0.408081
0.747803 0.793701 0.406891
0.778198 0.789673 0.406891
0.805115 0.789154 0.405151
0.835480 0.787781 0.407227
0.867889 0.783752 0.409393
0.895813 0.782654 0.412903
0.924225 0.784821 0.414917
0.951355 0.784821 0.413544
0.983795 0.778656 0.409515
0.989258 0.776337 0.409180
0.999359 0.776337 0.399109
1.000000 0.770355 0.377258
1.000000 0.770355 0.352905
0.440460 0.826172 0.436188
0.432404 0.826172 0.436188
0.428986 0.826721 0.436829
0.439087 0.828857 0.434814
0.447510 0.829926 0.434235
0.453583 0.829926 0.434235
0.463135 0.828735 0.432281
0.479279 0.824585 0.432281
0.499756 0.822662 0.430023
0.522095 0.822662 0.419800
0.545441 0.822540 0.414185
0.575867 0.824554 0.412170
0.601196 0.824249 0.411713
0.619507 0.820190 0.413727
0.641632 0.817993 0.410309
0.665833 0.817993 0.406250
0.694611 0.819397 0.410736
0.724548 0.821381 0.418701
0.746094 0.821564 0.418152
0.764404 0.819550 0.412109
0.792480 0.815887 0.410950
0.822876 0.811859 0.410950
0.853790 0.809967 0.413300
0.886078 0.807953 0.417328
0.914001 0.807007 0.420959
0.940369 0.807007 0.425018
0.967133 0.807434 0.423767
0.993866 0.807037 0.421631
0.998047 0.804474 0.422852
0.999359 0.802734 0.423309
1.000000 0.795166 0.401886
1.000000 0.788666 0.379272
0.468964 0.852539 0.447479
0.467407 0.850891 0.447479
0.460632 0.850891 0.447205
0.472321 0.851440 0.443695
0.482147 0.853577 0.442719
0.489563 0.854950 0.446808
0.497589 0.854187 0.445251
0.513733 0.850098 0.440308
0.528870 0.847504 0.441345
0.545654 0.848633 0.438965
0.568634 0.847321 0.429413
0.596100 0.846405 0.424469
0.625671 0.848419 0.420837
0.648163 0.846924 0.419403
0.670105 0.843811 0.420502
0.695068 0.843079 0.417908
0.715088 0.843079 0.415955
0.740784 0.844482 0.421478
0.770905 0.845367 0.426178
0.792297 0.843872 0.422211
0.810577 0.839386 0.419861
0.838654 0.834930 0.419861
0.867706 0.830902 0.414398
0.899475 0.828644 0.416870
0.921295 0.828125 0.422394
0.947113 0.828125 0.426575
0.970245 0.828125 0.427338
0.996613 0.828125 0.425323
1.000000 0.826355 0.430176
1.000000 0.824341 0.432220
1.000000 0.818268 0.426117
1.000000 0.810211 0.403931
0.491150 0.878906 0.457550
0.491150 0.876892 0.457550
0.490906 0.875244 0.457306
0.503143 0.875244 0.453247
0.514587 0.875793 0.450775
0.522644 0.877808 0.456848
0.532013 0.878387 0.459381
0.548157 0.874359 0.451324
0.563293 0.871857 0.447388
0.575531 0.873871 0.451416
0.592987 0.873688 0.449738
0.617340 0.869659 0.441650
0.643982 0.868744 0.435089
0.672211 0.870758 0.428894
0.698334 0.870178 0.426575
0.724731 0.868164 0.426575
0.745514 0.867432 0.426056
0.761536 0.867432 0.426056
