assets/luts/0000.CUBE
#Created by: Adobe Photoshop Export Color Lookup Plugin
TITLE "Untitled-1"
#LUT size
LUT_3D_SIZE 8
#data domain
#LUT data points
DOMAIN_MIN 0.000000 0.000000 0.000000
DOMAIN_MAX 0.903226 0.903226 0.903226
0.000000 0.066681 0.117706
0.067444 0.050262 0.116943
0.189331 0.010162 0.077881
0.301849 0.000000 0.025024
0.417480 0.000000 0.001038
0.547913 0.000000 0.007446
0.716949 0.000000 0.050140
0.905090 0.000000 0.096100
0.000000 0.115631 0.097412
0.039307 0.100281 0.085938
0.182526 0.087524 0.000000
0.304962 0.049744 0.000000
0.412598 0.037415 0.000000
0.546783 0.064453 0.015564
0.714539 0.051819 0.053772
0.898041 0.039795 0.090759
0.000000 0.184387 0.096649
0.055725 0.177063 0.071381
0.168518 0.192200 0.088837
0.291168 0.197662 0.042419
0.438049 0.205811 0.000000
0.602661 0.189911 0.000000
0.777222 0.195465 0.000000
0.937683 0.232147 0.021149
0.000000 0.312836 0.152893
0.011993 0.316681 0.155518
0.183868 0.323700 0.151855
0.304993 0.343506 0.170074
0.445099 0.360992 0.152496
0.614380 0.378876 0.069550
0.802582 0.385529 0.002350
0.974091 0.380157 0.000000
0.019531 0.489288 0.260468
0.111237 0.486145 0.257050
0.253510 0.497650 0.249268
0.373016 0.513092 0.264404
0.496735 0.525726 0.273285
0.654327 0.547333 0.275055
0.815460 0.557617 0.216888
0.974091 0.546967 0.084625
0.223999 0.664185 0.360199
0.258057 0.668549 0.359924
0.358978 0.670959 0.356995
0.483307 0.674530 0.350311
0.581390 0.677521 0.353607
0.708282 0.682861 0.369629
0.830414 0.681152 0.370544
0.978363 0.672058 0.281555
0.385712 0.799957 0.419891
0.404999 0.801544 0.428040
0.479584 0.798462 0.415771
0.570801 0.795990 0.407684
0.678467 0.793152 0.404694
0.778198 0.789673 0.406891
0.895813 0.782654 0.412903
0.989258 0.776337 0.409180
0.515228 0.903503 0.464142
0.539612 0.899597 0.454803
0.585236 0.897461 0.451904
0.659668 0.891998 0.440491
0.765594 0.887238 0.429871
0.859863 0.885986 0.433807
0.945221 0.868896 0.425507
1.000000 0.865112 0.436249
0.000000 0.070313 0.166168
0.003143 0.059113 0.158875
0.107269 0.075256 0.155731
0.224243 0.064850 0.158600
0.366394 0.037079 0.155243
0.517761 0.006256 0.151062
0.704590 0.004700 0.180359
0.901764 0.004700 0.208069
0.000000 0.115631 0.151306
0.000000 0.108856 0.151825
0.122650 0.108856 0.152100
0.248169 0.097656 0.137756
0.395355 0.080597 0.139832
0.545105 0.056274 0.152405
0.713318 0.045685 0.173218
0.901825 0.039795 0.205078
0.000000 0.191681 0.165649
0.000000 0.192719 0.150543
0.112488 0.197144 0.155487
0.263824 0.209137 0.113281
0.419861 0.213562 0.088562
0.543610 0.240723 0.133270
0.722687 0.270264 0.168274
0.902802 0.281799 0.197021
0.000000 0.327881 0.223450
0.000000 0.328400 0.214050
0.104980 0.330994 0.213837
0.275269 0.355988 0.224243
0.428650 0.374268 0.201904
0.602509 0.387482 0.130798
0.792206 0.394867 0.082581
0.963348 0.401642 0.084747
0.000000 0.499969 0.280029
0.012299 0.491364 0.288940
0.192535 0.502869 0.299072
0.336243 0.508850 0.298279
0.475891 0.527771 0.318542
0.630920 0.554932 0.320770
0.797272 0.565216 0.256866
0.969788 0.552246 0.149628
0.132080 0.676361 0.382111
0.179108 0.677338 0.384399
0.308746 0.674927 0.393402
0.446716 0.682098 0.392151
0.559296 0.688538 0.390350
0.686188 0.690918 0.401184
0.809692 0.688263 0.400787
0.967651 0.676025 0.311188
0.327545 0.806946 0.434814
0.360596 0.805725 0.451416
0.442200 0.800507 0.444916
0.551270 0.797821 0.437408
0.654602 0.799957 0.427948
0.762695 0.792328 0.434998
0.882996 0.784424 0.437225
0.980530 0.781433 0.439880
0.477081 0.909821 0.472473
0.506561 0.905273 0.480286
0.568726 0.901093 0.476044
0.649719 0.900452 0.463409
0.747803 0.885834 0.451141
0.844208 0.887756 0.458466
0.931396 0.874939 0.455322
1.000000 0.866852 0.461639
0.000000 0.065094 0.227631
0.000000 0.070831 0.226593
0.078674 0.080994 0.216949
0.153412 0.110931 0.228912
0.242737 0.147888 0.245697
0.405640 0.175140 0.286224
0.585632 0.202545 0.325745
0.804993 0.216034 0.354126
0.000000 0.112762 0.220062
0.000000 0.120819 0.220337
0.036469 0.126038 0.224487
0.146118 0.148438 0.232056
0.272125 0.183044 0.269775
0.430389 0.211029 0.300934
0.617889 0.235199 0.337402
0.830475 0.250122 0.359344
0.000000 0.189850 0.224487
0.000000 0.200012 0.231537
0.000000 0.213287 0.244812
0.188293 0.227081 0.269806
0.331207 0.251282 0.288788
0.493286 0.273834 0.308746
0.681183 0.294312 0.325256
0.875977 0.310486 0.355408
0.000000 0.326050 0.304199
0.000000 0.333862 0.306030
0.000000 0.344025 0.306824
0.194031 0.364380 0.313599
0.385956 0.387482 0.273499
0.583832 0.400726 0.248016
0.723602 0.434296 0.313812
0.911713 0.456970 0.341827
0.000000 0.494202 0.385773
0.000000 0.503906 0.386017
0.009918 0.516388 0.370514
0.271454 0.523682 0.383209
0.426208 0.539001 0.395966
0.591370 0.570801 0.383514
0.779999 0.579102 0.330200
0.956390 0.564148 0.255432
0.017303 0.681763 0.471649
0.036102 0.679077 0.454834
0.195190 0.686707 0.442719
0.380127 0.690674 0.464874
0.517578 0.693970 0.456696
0.650024 0.698822 0.464630
0.784698 0.702393 0.460968
0.948975 0.694244 0.380646
0.250885 0.814240 0.501709
0.284882 0.816650 0.489349
0.358978 0.813263 0.486084
0.487213 0.811035 0.499603
0.621521 0.804962 0.484161
0.729950 0.801117 0.488312
0.844208 0.798981 0.491943
0.961182 0.791412 0.490784
0.400360 0.915741 0.498138
0.431366 0.915222 0.501282
0.497406 0.914001 0.509613
0.593231 0.908783 0.517303
0.703186 0.900513 0.512360
0.814514 0.893616 0.505676
0.900696 0.885529 0.498932
0.987122 0.876831 0.504150
0.000000 0.067444 0.288574
0.000000 0.076294 0.287811
0.013550 0.095856 0.288849
0.145081 0.123169 0.285431
0.231903 0.165558 0.317108
0.345306 0.233612 0.362579
0.472900 0.295135 0.415863
0.679077 0.348206 0.482910
0.000000 0.120575 0.285461
0.000000 0.125000 0.282837
0.003387 0.137512 0.295105
0.133057 0.159424 0.296112
0.233429 0.202789 0.334351
0.343414 0.260712 0.368958
0.494629 0.325562 0.435883
0.702942 0.366638 0.493317
0.000000 0.201569 0.304718
0.000000 0.208344 0.300812
0.000000 0.222656 0.319275
0.114807 0.244080 0.338287
0.235260 0.291107 0.371368
0.357025 0.339020 0.408325
0.548309 0.386475 0.470001
0.758606 0.419495 0.512024
0.000000 0.334137 0.370850
0.000000 0.339325 0.365143
0.000000 0.351318 0.377930
0.022705 0.384155 0.406250
0.280426 0.411926 0.437531
0.465424 0.440979 0.464600
0.658051 0.472687 0.494598
0.845703 0.494995 0.517517
0.000000 0.504456 0.459991
0.000000 0.513824 0.470917
0.000000 0.526245 0.479523
0.061371 0.541351 0.487610
0.338837 0.562775 0.498627
0.546051 0.583740 0.460052
0.742584 0.592987 0.431915
0.890076 0.600311 0.477295
0.000000 0.685455 0.556915
0.003906 0.683960 0.555298
0.059113 0.687866 0.562805
0.240051 0.708313 0.544281
0.445618 0.704285 0.549896
0.597473 0.712677 0.545471
0.735474 0.710846 0.524506
0.929565 0.705963 0.453217
0.200317 0.813263 0.603760
0.233185 0.814056 0.600708
0.295319 0.819580 0.602112
0.387787 0.824280 0.563721
0.544952 0.819855 0.578247
0.681244 0.812744 0.562988
0.804626 0.818146 0.572418
0.930084 0.805328 0.557281
0.394348 0.918152 0.607056
0.405945 0.919128 0.600525
0.434753 0.920105 0.586182
0.517548 0.921417 0.567932
0.642273 0.910736 0.585480
0.773224 0.902985 0.573212
0.865326 0.891968 0.564941
0.966675 0.891602 0.566376
0.000000 0.080444 0.344421
0.000000 0.088013 0.342072
0.004150 0.105682 0.346466
0.129028 0.130676 0.356140
0.225098 0.175934 0.382904
0.342133 0.240845 0.431549
0.465363 0.323029 0.494293
0.595337 0.406555 0.549530
0.000000 0.125732 0.343384
0.000000 0.130951 0.347321
0.000000 0.143707 0.354889
0.096893 0.176270 0.370453
0.231384 0.211365 0.397461
0.344513 0.274506 0.442963
0.466644 0.352020 0.503479
0.613159 0.435181 0.567230
0.000000 0.209869 0.366302
0.000000 0.216919 0.377289
0.000000 0.240662 0.392334
0.041290 0.257507 0.405365
0.231049 0.298401 0.432892
0.345459 0.352875 0.481384
0.489349 0.422394 0.535828
0.632507 0.495422 0.596527
0.000000 0.347107 0.438477
0.000000 0.348389 0.439758
0.000000 0.362732 0.449890
0.024261 0.392426 0.476685
0.230713 0.427551 0.507385
0.369019 0.476379 0.544830
0.515961 0.537079 0.594452
0.706573 0.563324 0.636108
0.000000 0.515869 0.531677
0.000000 0.518250 0.532257
0.000000 0.532715 0.542877
0.042084 0.553101 0.562775
0.236633 0.589325 0.599182
0.447083 0.601501 0.612396
0.629639 0.625671 0.633270
0.811249 0.633789 0.648102
0.000000 0.687408 0.627838
0.003906 0.690338 0.628937
0.039093 0.702698 0.639465
0.206665 0.706879 0.638794
0.341278 0.719727 0.643005
0.525635 0.729950 0.639954
0.707855 0.728546 0.599915
0.904358 0.715942 0.542816
0.201630 0.815674 0.666687
0.218048 0.820129 0.671875
0.284790 0.817688 0.670593
0.359589 0.825043 0.678223
0.461609 0.837067 0.660187
0.613068 0.826477 0.653320
0.763306 0.835632 0.651550
0.889496 0.817596 0.620422
0.375397 0.918396 0.686218
0.391266 0.919128 0.686432
0.428253 0.919647 0.683533
0.482788 0.923523 0.684845
0.557922 0.928223 0.642822
0.701294 0.914490 0.653625
0.817627 0.906372 0.646179
0.929291 0.898529 0.643097
0.000000 0.099243 0.408661
0.000000 0.107758 0.406738
0.000000 0.124420 0.412720
0.090576 0.153351 0.429047
0.217865 0.199158 0.462646
0.337799 0.252960 0.503632
0.468353 0.338379 0.567505
0.607819 0.419403 0.628143
0.000000 0.142059 0.413635
0.000000 0.148895 0.410248
0.000000 0.163940 0.428162
0.093811 0.193817 0.446136
0.222656 0.229401 0.480713
0.333771 0.288757 0.517181
0.476166 0.362427 0.578247
0.618103 0.446411 0.642731
0.000000 0.231598 0.445770
0.000000 0.236938 0.454651
0.000000 0.246552 0.464935
0.017487 0.276123 0.485046
0.205139 0.314728 0.514343
0.354279 0.367706 0.561676
0.487885 0.436005 0.610779
0.637238 0.509613 0.674377
0.000000 0.357239 0.510742
0.000000 0.373230 0.528961
0.000000 0.379272 0.533447
0.022705 0.408722 0.553253
0.202026 0.446075 0.585205
0.369324 0.488800 0.615662
0.514557 0.541443 0.666229
0.660065 0.594757 0.705048
0.000000 0.528412 0.612213
0.000000 0.533905 0.610260
0.000000 0.540344 0.621582
0.033081 0.564117 0.644073
0.223694 0.594666 0.671692
0.405945 0.623077 0.685730
0.550262 0.656342 0.709778
0.680298 0.679657 0.724335
0.000000 0.699524 0.706299
0.000000 0.702454 0.702393
0.042023 0.706116 0.697052
0.204895 0.715027 0.704407
0.330353 0.729797 0.715546
0.444092 0.742767 0.723328
0.620178 0.753418 0.740997
0.798218 0.752899 0.748657
0.165863 0.819580 0.738678
0.207092 0.824463 0.743408
0.265930 0.821594 0.745605
0.352417 0.829163 0.745941
0.438904 0.836334 0.752167
0.545685 0.842499 0.749695
0.698822 0.847565 0.745605
0.857697 0.832916 0.698303
0.360413 0.921417 0.757202
0.388672 0.919586 0.758179
0.421265 0.921234 0.752502
0.475922 0.924286 0.753815
0.549286 0.929932 0.765808
0.618073 0.931915 0.741699
0.757080 0.920898 0.734009
0.883057 0.917786 0.740112
0.000000 0.124603 0.471741
0.000000 0.127533 0.472809
0.000000 0.143799 0.482269
0.078949 0.178650 0.501038
0.214111 0.218079 0.535400
0.337494 0.278229 0.584686
0.471222 0.348999 0.645111
0.617126 0.437561 0.713287
0.000000 0.162109 0.485199
0.000000 0.166626 0.488373
0.000000 0.184448 0.497955
0.073120 0.212341 0.521576
0.212372 0.259186 0.555481
0.341858 0.310883 0.604523
0.479797 0.379608 0.660980
0.614441 0.462646 0.722229
0.000000 0.246246 0.519196
0.000000 0.250671 0.524628
0.000000 0.265900 0.538391
0.051697 0.294556 0.560760
0.205902 0.334717 0.596527
0.357544 0.389221 0.646423
0.499207 0.451172 0.697754
0.642975 0.523346 0.744843
0.000000 0.379425 0.601013
0.000000 0.387909 0.601990
0.000000 0.400482 0.614960
0.021149 0.422516 0.635345
0.217377 0.460144 0.665405
0.363922 0.506042 0.710754
0.525177 0.555573 0.744232
0.664398 0.603607 0.779358
0.000000 0.540833 0.693604
0.000000 0.541870 0.695068
0.000000 0.561981 0.714630
0.035217 0.582489 0.725006
0.262573 0.610901 0.745972
0.409393 0.633850 0.763000
0.549011 0.663574 0.787231
0.683136 0.684235 0.798309
0.000000 0.708771 0.769196
0.000000 0.710022 0.779144
0.039764 0.715149 0.789459
0.158081 0.719238 0.786987
0.317566 0.736420 0.798706
0.451843 0.746918 0.800232
0.591370 0.759338 0.812134
0.720978 0.775177 0.818726
0.190491 0.824982 0.808777
0.199310 0.824738 0.809723
0.265259 0.828369 0.812164
0.379120 0.834473 0.811188
0.452515 0.837128 0.812195
0.542572 0.846680 0.815796
0.637878 0.855804 0.820496
0.791138 0.852417 0.827179
0.372650 0.919922 0.825836
0.389008 0.922913 0.830444
0.416321 0.924347 0.827057
0.469910 0.927490 0.829407
0.544891 0.934296 0.835480
0.615662 0.931396 0.830719
0.686310 0.933258 0.828949
0.827576 0.927612 0.822632
0.000000 0.146027 0.544983
0.000000 0.156525 0.549805
0.000000 0.171143 0.556824
0.063599 0.205078 0.587280
0.235077 0.245148 0.616669
0.347839 0.307159 0.672943
0.487946 0.379181 0.727692
0.623169 0.455597 0.790009
0.000000 0.189331 0.559235
0.000000 0.192261 0.564056
0.000000 0.209442 0.577454
0.080627 0.236816 0.602692
0.227966 0.285156 0.640503
0.352264 0.340790 0.690643
0.497437 0.402100 0.740143
0.632294 0.481384 0.805206
0.000000 0.269806 0.603485
0.000000 0.278992 0.608673
0.000000 0.291290 0.613037
0.041290 0.319336 0.640045
0.231720 0.365601 0.687317
0.362946 0.412140 0.724640
0.514374 0.475555 0.782990
0.647522 0.535767 0.829407
0.000000 0.405670 0.682312
0.000000 0.413483 0.686096
0.000000 0.423309 0.695221
0.026062 0.450714 0.720734
0.218231 0.484985 0.750732
0.378662 0.526215 0.790588
0.532776 0.571899 0.822968
0.667297 0.612915 0.861603
0.000000 0.561920 0.776093
0.000000 0.564392 0.779053
0.000000 0.578796 0.791107
0.030121 0.598999 0.806946
0.251312 0.618866 0.822723
0.404877 0.652985 0.854309
0.548279 0.671143 0.862488
0.690094 0.690704 0.880280
0.000000 0.714447 0.860809
0.000000 0.713440 0.852722
0.014099 0.720673 0.861511
0.189758 0.735901 0.868866
0.342468 0.739166 0.862488
0.447144 0.758575 0.879150
0.576172 0.771606 0.889984
0.719910 0.778442 0.893951
0.194489 0.829163 0.881561
0.238129 0.829163 0.878632
0.286530 0.833832 0.882294
0.371582 0.836823 0.888214
0.436646 0.842560 0.889984
0.536499 0.856262 0.899200
0.644775 0.853119 0.892059
0.747650 0.866028 0.896484
0.371948 0.925323 0.890045
0.394012 0.923828 0.891083
0.434418 0.926575 0.889526
0.487488 0.930603 0.893555
0.547943 0.929962 0.890778
0.620605 0.930878 0.889526
0.691833 0.938934 0.896484
0.779358 0.939209 0.901764
