assets/luts/0001.CUBE
#Created by: Adobe Photoshop Export Color Lookup Plugin
TITLE "Untitled-1"
#LUT size
LUT_3D_SIZE 8
#data domain
#LUT data points
DOMAIN_MIN 0.000000 0.000000 0.000000
DOMAIN_MAX 0.903226 0.903226 0.903226
0.027344 0.027344 0.027344
0.089081 0.036469 0.031799
0.195587 0.032776 0.038788
0.290131 0.013275 0.016418
0.368958 0.000000 0.000000
0.443726 0.000000 0.000000
0.534180 0.000000 0.000000
0.625122 0.000000 0.000000
0.107819 0.088287 0.041382
0.148956 0.084381 0.041138
0.225281 0.076050 0.017975
0.298462 0.063812 0.000000
0.367615 0.054199 0.000000
0.448944 0.019409 0.000000
0.534088 0.005035 0.000000
0.632690 0.003906 0.000000
0.180206 0.153137 0.000000
0.204681 0.145325 0.000000
0.257263 0.140350 0.000000
0.319244 0.129944 0.000000
0.391327 0.126587 0.000000
0.470154 0.110992 0.000000
0.560333 0.102753 0.000000
0.659149 0.123413 0.000000
0.239105 0.214874 0.000000
0.259644 0.214630 0.000000
0.304718 0.207581 0.000000
0.365387 0.199982 0.000000
0.424133 0.196838 0.000000
0.508026 0.200806 0.000000
0.605530 0.202301 0.000000
0.704468 0.214874 0.000000
0.327118 0.292603 0.000000
0.337891 0.289978 0.000000
0.375702 0.288391 0.000000
0.432434 0.287872 0.000000
0.494202 0.289917 0.000000
0.575378 0.294250 0.000000
0.665649 0.306488 0.000000
0.781860 0.332367 0.000000
0.439423 0.396454 0.000000
0.449738 0.396454 0.000000
0.484741 0.400574 0.000000
0.538696 0.395966 0.000000
0.596832 0.407562 0.000000
0.686005 0.415802 0.000000
0.772736 0.441010 0.000000
0.887573 0.463593 0.000000
0.593842 0.538483 0.000000
0.605774 0.541718 0.000000
0.636047 0.544403 0.000000
0.686310 0.550781 0.000000
0.749664 0.559601 0.000000
0.829468 0.576263 0.000000
0.920227 0.597443 0.000000
0.987122 0.632538 0.000000
0.800964 0.724731 0.000000
0.807983 0.728241 0.000000
0.834412 0.731750 0.000000
0.873077 0.738007 0.000000
0.933014 0.749725 0.000000
0.974091 0.760223 0.000000
1.000000 0.775116 0.005981
1.000000 0.798218 0.008789
0.044525 0.031525 0.035126
0.108856 0.040100 0.047394
0.206268 0.029938 0.049469
0.286743 0.019806 0.019806
0.368958 0.000000 0.000000
0.446564 0.000000 0.000000
0.531525 0.000000 0.000000
0.624725 0.000000 0.000000
0.124207 0.091675 0.041901
0.160675 0.084137 0.037750
0.225555 0.075531 0.017975
0.301849 0.066162 0.003113
0.373901 0.048737 0.000000
0.456848 0.017761 0.000000
0.539154 0.002869 0.000000
0.636963 0.004181 0.000000
0.189301 0.149231 0.000000
0.212769 0.145325 0.000000
0.261749 0.140625 0.000000
0.323181 0.132538 0.000000
0.395203 0.121338 0.000000
0.471191 0.113861 0.000000
0.562805 0.106506 0.000000
0.662659 0.113251 0.000000
0.255463 0.214111 0.000000
0.270569 0.210968 0.000000
0.311432 0.206787 0.000000
0.368500 0.203094 0.000000
0.433228 0.199463 0.000000
0.513000 0.196442 0.000000
0.608643 0.202698 0.000000
0.703552 0.219360 0.000000
0.337128 0.290497 0.000000
0.344116 0.286835 0.000000
0.377228 0.290497 0.000000
0.430573 0.282104 0.000000
0.496338 0.289673 0.000000
0.574493 0.294800 0.000000
0.669678 0.309570 0.000000
0.784515 0.330231 0.000000
0.452393 0.395477 0.000000
0.466583 0.395935 0.000000
0.489685 0.400360 0.000000
0.537079 0.399658 0.000000
0.599823 0.407043 0.000000
0.687225 0.416077 0.000000
0.775299 0.440308 0.000000
0.885345 0.462799 0.000000
0.611847 0.537048 0.000000
0.621216 0.540283 0.000000
0.630249 0.542755 0.000000
0.689667 0.549866 0.000000
0.752472 0.560852 0.000000
0.839020 0.579376 0.000000
0.922638 0.601349 0.000000
0.987122 0.632813 0.000275
0.807526 0.722961 0.000000
0.814514 0.719574 0.000000
0.837067 0.728760 0.000000
0.880371 0.741913 0.000000
0.931610 0.743622 0.000000
0.976227 0.764648 0.001312
1.000000 0.777283 0.009399
1.000000 0.795532 0.032074
0.093262 0.032837 0.040894
0.131256 0.046356 0.052094
0.232056 0.020050 0.053375
0.294830 0.019531 0.025269
0.366577 0.008636 0.000519
0.440857 0.000000 0.000000
0.529816 0.000000 0.000000
0.630280 0.000000 0.000000
0.153656 0.084137 0.049988
0.181244 0.083344 0.042175
0.245300 0.071869 0.029419
0.306030 0.064331 0.007019
0.378235 0.052917 0.000000
0.458801 0.027222 0.000000
0.537537 0.017578 0.000000
0.640350 0.008148 0.000000
0.208618 0.144806 0.000000
0.228668 0.140869 0.000000
0.272949 0.140869 0.000000
0.333344 0.126038 0.000000
0.396759 0.120819 0.000000
0.477570 0.116516 0.000000
0.560852 0.104797 0.000000
0.664825 0.121613 0.000000
0.270844 0.207855 0.000000
0.279968 0.207062 0.000000
0.316681 0.203949 0.000000
0.373199 0.199707 0.000000
0.441315 0.199738 0.000000
0.520233 0.194824 0.000000
0.612610 0.200012 0.000000
0.712067 0.214874 0.000000
0.348785 0.286835 0.000000
0.363159 0.286591 0.000000
0.388123 0.286835 0.000000
0.437897 0.284454 0.000000
0.505737 0.291779 0.000000
0.584290 0.294769 0.000000
0.674103 0.311462 0.000000
0.788940 0.324036 0.000000
0.459351 0.393280 0.000000
0.468414 0.389862 0.000000
0.498230 0.403046 0.000000
0.544373 0.401855 0.000000
0.609680 0.404907 0.000000
0.691559 0.418274 0.000000
0.783539 0.442444 0.000000
0.892090 0.466980 0.000000
0.617950 0.536591 0.000000
0.625305 0.537292 0.000000
0.650879 0.542969 0.000000
0.696259 0.553955 0.000000
0.753754 0.560638 0.000000
0.841370 0.582581 0.000000
0.922638 0.594513 0.000519
0.989258 0.636444 0.025238
0.819855 0.719177 0.007813
0.835815 0.724213 0.011536
0.853180 0.727905 0.004700
0.886383 0.739380 0.006256
0.938782 0.749115 0.009918
0.978363 0.762360 0.026459
1.000000 0.781189 0.044220
1.000000 0.793915 0.078491
0.148224 0.041656 0.056519
0.194275 0.035645 0.067963
0.253357 0.019012 0.061707
0.314575 0.007813 0.040100
0.381622 0.000000 0.020355
0.450470 0.000000 0.004211
0.536530 0.000000 0.002350
0.633514 0.000000 0.005463
0.197113 0.078400 0.058594
0.218018 0.071625 0.051300
0.261444 0.072144 0.042938
0.318481 0.056244 0.023712
0.388123 0.050049 0.013824
0.457703 0.041412 0.003387
0.538086 0.038269 0.002594
0.645294 0.029999 0.003906
0.237793 0.137482 0.015350
0.253113 0.136963 0.008087
0.287262 0.133575 0.004944
0.343262 0.128632 0.000793
0.410858 0.118469 0.000519
0.480103 0.111237 0.000275
0.571075 0.109100 0.001312
0.670013 0.128998 0.001038
0.290924 0.207062 0.000000
0.303406 0.206787 0.000000
0.335419 0.203674 0.000000
0.388306 0.199982 0.000000
0.447845 0.199982 0.000000
0.524994 0.198151 0.000000
0.614166 0.203156 0.000000
0.718781 0.222290 0.000000
0.367340 0.285828 0.000000
0.382843 0.286316 0.000000
0.407928 0.283966 0.000000
0.449890 0.285828 0.000000
0.516205 0.292816 0.000000
0.594025 0.296265 0.000000
0.685120 0.308624 0.000000
0.792542 0.328613 0.000000
0.478424 0.394745 0.000000
0.486969 0.393860 0.000000
0.517578 0.393280 0.000000
0.557587 0.401154 0.000000
0.620331 0.413879 0.000000
0.692749 0.419708 0.000000
0.784149 0.440399 0.000000
0.905060 0.469788 0.012512
0.637817 0.535858 0.000000
0.646210 0.537292 0.000000
0.675262 0.543213 0.000000
0.705109 0.551605 0.000793
0.764099 0.567017 0.000000
0.844482 0.581207 0.010193
0.929840 0.603760 0.029480
0.995697 0.638336 0.074463
0.842957 0.722382 0.054840
0.844452 0.722565 0.057007
0.863129 0.728241 0.051147
0.911163 0.743408 0.062531
0.946106 0.752899 0.055115
0.984955 0.760742 0.071533
1.000000 0.777222 0.113770
1.000000 0.797455 0.156677
0.217926 0.014587 0.080444
0.239258 0.015198 0.075500
0.278320 0.011200 0.071075
0.339813 0.000000 0.062714
0.392761 0.000000 0.052063
0.461792 0.000000 0.039917
0.549438 0.000000 0.038483
0.640259 0.000000 0.039520
0.234344 0.067719 0.064301
0.253815 0.066956 0.070068
0.289795 0.059662 0.058594
0.342194 0.057556 0.052582
0.402222 0.042206 0.041382
0.473938 0.037079 0.037231
0.557159 0.025024 0.031342
0.648010 0.058228 0.035553
0.269470 0.133087 0.043732
0.282227 0.133087 0.040588
0.317657 0.132050 0.036896
0.359863 0.124512 0.029633
0.421753 0.117462 0.020264
0.496033 0.113342 0.026520
0.579987 0.113251 0.024170
0.676605 0.138824 0.034912
0.314728 0.199982 0.007721
0.331970 0.202362 0.005920
0.364044 0.196075 0.009308
0.399963 0.202087 0.004578
0.462067 0.194305 0.005615
0.534424 0.199463 0.005524
0.626373 0.211670 0.016968
0.725067 0.228577 0.032104
0.390900 0.285828 0.000000
0.402710 0.285309 0.000000
0.432617 0.281097 0.000000
0.474274 0.283966 0.000000
0.534363 0.291779 0.000000
0.600922 0.295288 0.004089
0.698059 0.314880 0.008209
0.807343 0.336182 0.035522
0.502991 0.393799 0.000000
0.513397 0.392548 0.000000
0.536194 0.394836 0.000000
0.578644 0.402924 0.004395
0.636993 0.407562 0.001038
0.711365 0.423004 0.009308
0.805298 0.444824 0.019592
0.911316 0.468292 0.057129
0.659668 0.539429 0.015747
0.670624 0.541504 0.020905
0.681061 0.542542 0.022461
0.731445 0.549133 0.029175
0.787140 0.561676 0.037750
0.859222 0.582733 0.043457
0.944458 0.607819 0.094055
0.997864 0.636871 0.126526
0.857849 0.728912 0.127350
0.867157 0.726471 0.129608
0.889618 0.727509 0.140808
0.925598 0.738190 0.151245
0.954742 0.752197 0.152496
1.000000 0.767700 0.163849
1.000000 0.780487 0.178925
1.000000 0.797485 0.199280
0.270203 0.000000 0.088684
0.285126 0.005341 0.088684
0.313538 0.000000 0.082092
0.358185 0.000000 0.080872
0.418152 0.000000 0.074280
0.484283 0.000000 0.069153
0.567505 0.000000 0.071564
0.659698 0.000000 0.075531
0.279785 0.056061 0.081848
0.296448 0.057465 0.084259
0.322601 0.055267 0.080597
0.372070 0.044067 0.079559
0.426941 0.027069 0.072021
0.492615 0.015961 0.065247
0.571991 0.024872 0.066010
0.669891 0.046204 0.071228
0.304138 0.127716 0.068634
0.317963 0.127014 0.067657
0.346893 0.123810 0.064911
0.384888 0.119385 0.061981
0.442963 0.115723 0.057831
0.515137 0.112366 0.059570
0.596527 0.110443 0.061676
0.695099 0.138306 0.071442
0.351593 0.195282 0.044617
0.363953 0.199188 0.041748
0.384277 0.198730 0.042389
0.426849 0.199524 0.045837
0.483887 0.199921 0.049072
0.555420 0.201599 0.050659
0.644348 0.209015 0.060730
0.739960 0.231598 0.075378
0.423279 0.280273 0.018127
0.433746 0.280060 0.020660
0.455017 0.283752 0.024414
0.498535 0.285492 0.024475
0.553711 0.293610 0.034851
0.624786 0.298981 0.045105
0.712982 0.318756 0.062134
0.816467 0.340485 0.088165
0.530853 0.391235 0.014954
0.538483 0.396454 0.017609
0.568268 0.400360 0.022034
0.603882 0.404419 0.031342
0.660492 0.410461 0.040619
0.734009 0.427521 0.069885
0.823242 0.445984 0.090088
0.927460 0.476349 0.127777
0.680603 0.542694 0.067291
0.694458 0.545898 0.079224
0.714478 0.543549 0.089233
0.756531 0.554688 0.095886
0.805969 0.566895 0.115997
0.887726 0.588501 0.138580
0.951691 0.611450 0.156769
1.000000 0.642853 0.196716
0.883209 0.728638 0.182739
0.887451 0.726471 0.183014
0.908417 0.733582 0.194122
0.946167 0.745697 0.199127
0.967651 0.753021 0.209167
1.000000 0.769470 0.227295
1.000000 0.783875 0.230377
1.000000 0.798218 0.250061
0.316467 0.000000 0.105072
0.324738 0.000000 0.103851
0.354126 0.000000 0.103485
0.393555 0.000000 0.100220
0.443024 0.000000 0.095520
0.510010 0.000000 0.094421
0.584167 0.000000 0.094696
0.679749 0.000000 0.100952
0.325989 0.044708 0.100769
0.340118 0.038849 0.103058
0.361542 0.030609 0.099670
0.403137 0.019470 0.097565
0.449097 0.020569 0.094757
0.517273 0.002869 0.090973
0.594421 0.004181 0.095947
0.688019 0.038208 0.104553
0.349243 0.116974 0.088165
0.355682 0.114319 0.084778
0.378906 0.116974 0.090576
0.419128 0.112091 0.087189
0.467834 0.111633 0.086792
0.541443 0.104462 0.093109
0.623169 0.109283 0.095276
0.715790 0.142273 0.107330
0.387115 0.194580 0.074280
0.400818 0.192902 0.075012
0.419952 0.192413 0.070648
0.460114 0.189819 0.075775
0.512482 0.195526 0.080994
0.582855 0.198456 0.089722
0.662384 0.208374 0.099243
0.769501 0.233612 0.113403
0.457245 0.277649 0.060028
0.467255 0.276917 0.063477
0.492493 0.281097 0.069275
0.531921 0.286316 0.070435
0.579010 0.294861 0.077850
0.651825 0.306519 0.091522
0.739441 0.314728 0.107666
0.836395 0.348206 0.132782
0.567047 0.395050 0.068176
0.583496 0.395294 0.076263
0.593903 0.400635 0.086090
0.636932 0.401398 0.085571
0.683197 0.415649 0.100525
0.755829 0.430267 0.117188
0.844971 0.449249 0.143524
0.939941 0.485199 0.175262
0.716644 0.542969 0.121979
0.720886 0.546692 0.124817
0.739166 0.550781 0.127106
0.785706 0.556946 0.141113
0.835144 0.569946 0.159546
0.906494 0.588837 0.182159
0.963715 0.617126 0.205139
1.000000 0.650024 0.245758
0.908051 0.730377 0.223175
0.919128 0.730988 0.227936
0.936371 0.738464 0.229370
0.954742 0.748779 0.243103
0.984955 0.755890 0.253906
1.000000 0.774750 0.273590
1.000000 0.787903 0.279602
1.000000 0.800262 0.289948
0.361786 0.000000 0.119476
0.371857 0.000000 0.119476
0.389709 0.000000 0.118744
0.429199 0.000000 0.117310
0.473877 0.000000 0.115173
0.537201 0.000000 0.115875
0.614319 0.000000 0.124481
0.708008 0.000000 0.132172
0.370361 0.014984 0.120972
0.382233 0.010101 0.117310
0.399414 0.015228 0.117065
0.434357 0.005554 0.114655
0.485382 0.003387 0.112030
0.544312 0.009308 0.116608
0.625122 0.004425 0.120636
0.716980 0.034363 0.131897
0.391327 0.103149 0.110748
0.400635 0.106354 0.112366
0.419769 0.097992 0.108063
0.455078 0.103729 0.108978
0.504364 0.105988 0.110352
0.565399 0.106018 0.115875
0.651825 0.110779 0.121368
0.742645 0.137390 0.137634
0.429993 0.188843 0.100372
0.438324 0.189423 0.102783
0.459076 0.188049 0.100647
0.497620 0.190796 0.102905
0.545990 0.194061 0.107910
0.613770 0.203156 0.115814
0.695984 0.209717 0.129028
0.794830 0.242462 0.146667
0.499542 0.277191 0.099731
0.509613 0.277161 0.102692
0.527069 0.281311 0.104980
0.561279 0.289185 0.107666
0.610260 0.294861 0.112671
0.679565 0.308533 0.125580
0.767090 0.328491 0.149292
0.873627 0.353668 0.172180
0.609894 0.396271 0.114990
0.611450 0.397064 0.117004
0.635437 0.401215 0.127167
0.675568 0.411438 0.134460
0.722992 0.420105 0.144287
0.788025 0.442535 0.159546
0.878052 0.462006 0.183868
0.958527 0.494263 0.212463
0.753784 0.547394 0.165558
0.762512 0.548828 0.169128
0.784546 0.556946 0.174683
0.820679 0.567047 0.185944
0.871887 0.574310 0.202087
0.934418 0.598541 0.224915
0.977325 0.627228 0.251434
1.000000 0.652313 0.281494
0.939575 0.736450 0.263123
0.948303 0.739105 0.267303
0.952606 0.743347 0.270966
0.974091 0.750061 0.273621
1.000000 0.764618 0.289551
1.000000 0.774994 0.299225
1.000000 0.790039 0.313721
1.000000 0.803040 0.326111
