assets/luts/0001.CUBE
#Created by: Adobe Photoshop Export Color Lookup Plugin
TITLE "Untitled-1"
#LUT size
LUT_3D_SIZE 32
#data domain
DOMAIN_MIN 0.0 0.0 0.0
DOMAIN_MAX 1.0 1.0 1.0
#LUT data points
0.027344 0.027344 0.027344
0.041595 0.027344 0.025330
0.056000 0.027618 0.023712
0.072144 0.031769 0.027740
0.089081 0.036469 0.031799
0.111420 0.044525 0.035950
0.135284 0.049469 0.039337
0.165710 0.041412 0.039337
0.195587 0.032776 0.038788
0.223969 0.022552 0.036774
0.249725 0.015625 0.032776
0.269897 0.015625 0.024567
0.290131 0.013275 0.016418
0.310455 0.007233 0.008331
0.330719 0.002991 0.002991
0.350891 0.000977 0.000977
0.368958 0.000000 0.000000
0.384979 0.000000 0.000000
0.403290 0.000000 0.000000
0.423462 0.000000 0.000000
0.443726 0.000000 0.000000
0.464050 0.000000 0.000000
0.487091 0.000000 0.000000
0.511444 0.000000 0.000000
0.534180 0.000000 0.000000
0.556396 0.000000 0.000000
0.578705 0.000000 0.000000
0.601044 0.000000 0.000000
0.625122 0.000000 0.000000
0.649475 0.000000 0.000000
0.681366 0.000000 0.000000
0.713806 0.000000 0.000000
0.049683 0.041595 0.029358
0.055725 0.043610 0.033539
0.070007 0.043610 0.031372
0.084381 0.043884 0.027740
0.101807 0.047791 0.032318
0.127563 0.050568 0.040009
0.149872 0.055939 0.042175
0.173767 0.049469 0.037292
0.202118 0.041412 0.036224
0.225983 0.032776 0.032623
0.251099 0.026489 0.028656
0.269897 0.027863 0.020538
0.290131 0.025482 0.013153
0.310455 0.019348 0.006317
0.329803 0.016022 0.001892
0.348877 0.015106 0.000977
0.368988 0.006958 0.000000
0.386993 0.000000 0.000000
0.404175 0.000000 0.000000
0.423462 0.000000 0.000000
0.443726 0.000000 0.000000
0.464050 0.000000 0.000000
0.487091 0.000000 0.000000
0.511444 0.000000 0.000000
0.534180 0.000000 0.000000
0.556396 0.000000 0.000000
0.580322 0.000000 0.000000
0.603058 0.000000 0.000000
0.628906 0.000000 0.000000
0.653503 0.000000 0.000000
0.683533 0.000000 0.000000
0.715820 0.000000 0.000000
0.071747 0.056000 0.031647
0.077942 0.057861 0.035431
0.084381 0.059631 0.039459
0.098633 0.059631 0.035278
0.114075 0.059631 0.031921
0.140289 0.061646 0.040131
0.165497 0.062378 0.045441
0.187836 0.056305 0.039398
0.210052 0.050140 0.033966
0.232391 0.042053 0.029785
0.253235 0.036835 0.024353
0.271393 0.038849 0.016296
0.290405 0.037994 0.009369
0.310699 0.031799 0.003326
0.329803 0.028259 0.000000
0.347961 0.028259 0.000000
0.367096 0.021606 0.000000
0.387085 0.007690 0.000000
0.406067 0.000793 0.000000
0.424225 0.000793 0.000000
0.444244 0.000000 0.000000
0.464569 0.000000 0.000000
0.486969 0.000122 0.000000
0.511322 0.000122 0.000000
0.534332 0.000000 0.000000
0.556519 0.000000 0.000000
0.580200 0.000000 0.000000
0.604553 0.000000 0.000000
0.631042 0.000000 0.000000
0.657410 0.000000 0.000000
0.687317 0.000000 0.000000
0.717712 0.000000 0.000000
0.090057 0.072144 0.037842
0.098114 0.072144 0.035828
0.104706 0.073761 0.039459
0.116791 0.071747 0.041473
0.131836 0.071472 0.037323
0.152527 0.069733 0.034058
0.177216 0.070953 0.039093
0.195923 0.068420 0.031189
0.217743 0.063416 0.026154
0.238434 0.060211 0.023743
0.258789 0.053436 0.018311
0.275452 0.050964 0.010223
0.294434 0.051422 0.005280
0.314758 0.048065 0.003326
0.332275 0.043762 0.000000
0.347961 0.042511 0.000000
0.367096 0.039459 0.000000
0.387085 0.030029 0.000000
0.406067 0.018158 0.000000
0.424225 0.012878 0.000000
0.448669 0.005463 0.000000
0.472626 0.000000 0.000000
0.488831 0.001373 0.000000
0.509277 0.002136 0.000000
0.535034 0.000641 0.000000
0.558533 0.000000 0.000000
0.579224 0.000000 0.000000
0.602539 0.000000 0.000000
0.633911 0.000000 0.000000
0.661438 0.000000 0.000000
0.687836 0.000000 0.000000
0.717712 0.000000 0.000000
0.107819 0.088287 0.041382
0.116150 0.088043 0.039368
0.124359 0.088043 0.037628
0.136353 0.086151 0.039642
0.148956 0.084381 0.041138
0.169281 0.082367 0.037109
0.188660 0.080353 0.032532
0.206818 0.078339 0.024323
0.225281 0.076050 0.017975
0.245605 0.074036 0.015961
0.264557 0.071350 0.013031
0.280701 0.067322 0.004944
0.298462 0.063812 0.000000
0.318787 0.061768 0.000000
0.336304 0.059753 0.000000
0.350433 0.057739 0.000000
0.367615 0.054199 0.000000
0.387604 0.048248 0.000000
0.407135 0.039978 0.000000
0.425293 0.029755 0.000000
0.448944 0.019409 0.000000
0.477325 0.007294 0.000000
0.497162 0.004761 0.000000
0.511444 0.006775 0.000000
0.534088 0.005035 0.000000
0.560303 0.002991 0.000000
0.582275 0.003143 0.000000
0.602600 0.003143 0.000000
0.632690 0.003906 0.000000
0.665100 0.003906 0.000000
0.692108 0.005219 0.000000
0.718475 0.005219 0.000000
0.121948 0.104584 0.027130
0.132019 0.102570 0.025116
0.140503 0.102295 0.023346
0.150726 0.102295 0.025360
0.163239 0.100677 0.026886
0.179382 0.100677 0.024841
0.198486 0.098633 0.020416
0.212891 0.096619 0.014221
0.231079 0.094086 0.008148
0.249634 0.090302 0.007874
0.268616 0.087616 0.006500
0.284760 0.083466 0.004944
0.302490 0.079437 0.000000
0.322815 0.075897 0.000000
0.340332 0.073883 0.000000
0.354462 0.071869 0.000000
0.371643 0.069855 0.000000
0.391632 0.066406 0.000000
0.412933 0.058197 0.000000
0.433502 0.048035 0.000000
0.454132 0.041626 0.000000
0.479340 0.033661 0.000000
0.503632 0.031128 0.000000
0.521515 0.033142 0.000000
0.541779 0.027679 0.000000
0.566498 0.023315 0.000000
0.591095 0.026184 0.000000
0.612671 0.027496 0.000000
0.638275 0.032776 0.000000
0.669128 0.034332 0.000000
0.697784 0.043762 0.000000
0.724548 0.045715 0.000000
0.137634 0.120819 0.014069
0.145782 0.118805 0.012451
0.156006 0.116791 0.010559
0.166473 0.116516 0.012299
0.176697 0.116272 0.014069
0.192444 0.116150 0.012177
0.208618 0.116150 0.010559
0.222748 0.114136 0.004486
0.236755 0.112366 0.000000
0.255035 0.108337 0.000000
0.273071 0.103882 0.000000
0.289215 0.099701 0.000000
0.306152 0.095978 0.000000
0.326477 0.091949 0.000000
0.345184 0.089600 0.000000
0.359314 0.087585 0.000000
0.375305 0.084808 0.000000
0.395294 0.082825 0.000000
0.416962 0.077545 0.000000
0.439301 0.067444 0.000000
0.461548 0.061462 0.000000
0.483734 0.057434 0.000000
0.506042 0.056702 0.000000
0.528351 0.058716 0.000000
0.550690 0.054016 0.000000
0.573029 0.045959 0.000000
0.597290 0.049622 0.000000
0.621521 0.053650 0.000000
0.647186 0.058289 0.000000
0.673553 0.064331 0.000000
0.702209 0.072205 0.000000
0.730591 0.082306 0.000000
0.159973 0.136963 0.005981
0.159973 0.134949 0.005981
0.168243 0.132935 0.004486
0.180359 0.130920 0.004486
0.190796 0.130402 0.005981
0.200897 0.128387 0.005981
0.216675 0.128235 0.004486
0.232971 0.128235 0.004486
0.246552 0.126740 0.000000
0.259064 0.126495 0.000000
0.277374 0.121796 0.000000
0.295380 0.115997 0.000000
0.311523 0.112640 0.000000
0.328491 0.110260 0.000000
0.348785 0.108948 0.000000
0.367523 0.109924 0.000000
0.381561 0.105865 0.000000
0.397308 0.101105 0.000000
0.419708 0.097992 0.000000
0.443329 0.091797 0.000000
0.465576 0.086670 0.000000
0.487762 0.083801 0.000000
0.510071 0.081055 0.000000
0.532410 0.080902 0.000000
0.554718 0.078430 0.000000
0.577057 0.072174 0.000000
0.602661 0.082123 0.000000
0.627716 0.090118 0.000000
0.651917 0.090637 0.000000
0.677612 0.094727 0.000000
0.707733 0.095123 0.000000
0.736664 0.102631 0.000000
0.180206 0.153137 0.000000
0.181763 0.151123 0.000000
0.182007 0.149109 0.000000
0.192566 0.147095 0.000000
0.204681 0.145325 0.000000
0.215057 0.143585 0.000000
0.225922 0.141937 0.000000
0.242065 0.141937 0.000000
0.257263 0.140350 0.000000
0.269379 0.140350 0.000000
0.282440 0.140472 0.000000
0.300751 0.134430 0.000000
0.319244 0.129944 0.000000
0.335388 0.127930 0.000000
0.352386 0.126678 0.000000
0.372681 0.128693 0.000000
0.391327 0.126587 0.000000
0.405212 0.120636 0.000000
0.422760 0.116791 0.000000
0.447113 0.112732 0.000000
0.470154 0.110992 0.000000
0.492371 0.108978 0.000000
0.515656 0.106384 0.000000
0.537994 0.104218 0.000000
0.560333 0.102753 0.000000
0.582672 0.098724 0.000000
0.607727 0.106293 0.000000
0.634094 0.120544 0.000000
0.659149 0.123413 0.000000
0.683380 0.123413 0.000000
0.714417 0.124512 0.000000
0.744812 0.124512 0.000000
0.194336 0.169434 0.000000
0.200378 0.167419 0.000000
0.202209 0.165405 0.000000
0.206238 0.163361 0.000000
0.216797 0.161621 0.000000
0.229034 0.161621 0.000000
0.240204 0.160248 0.000000
0.254303 0.160248 0.000000
0.269379 0.158661 0.000000
0.281494 0.152466 0.000000
0.294281 0.153107 0.000000
0.308807 0.154602 0.000000
0.327850 0.150116 0.000000
0.347504 0.148102 0.000000
0.363708 0.146088 0.000000
0.380768 0.144836 0.000000
0.400940 0.142761 0.000000
0.419464 0.136780 0.000000
0.434601 0.134094 0.000000
0.453156 0.132935 0.000000
0.476257 0.132599 0.000000
0.498566 0.133179 0.000000
0.523499 0.129791 0.000000
0.548096 0.126556 0.000000
0.570404 0.128998 0.000000
0.592743 0.129120 0.000000
0.616699 0.129974 0.000000
0.642181 0.138702 0.000000
0.668549 0.144073 0.000000
0.693604 0.145630 0.000000
0.727386 0.149536 0.000000
0.759064 0.150879 0.000000
0.208466 0.185028 0.000000
0.214539 0.183655 0.000000
0.220459 0.181763 0.000000
0.224518 0.180267 0.000000
0.229584 0.178253 0.000000
0.241791 0.177856 0.000000
0.253632 0.177460 0.000000
0.267242 0.177216 0.000000
0.281403 0.177216 0.000000
0.293640 0.171417 0.000000
0.307037 0.165924 0.000000
0.321320 0.167938 0.000000
0.336609 0.168396 0.000000
0.356781 0.166382 0.000000
0.373871 0.165009 0.000000
0.390137 0.162994 0.000000
0.407715 0.160889 0.000000
0.427704 0.154938 0.000000
0.448181 0.152893 0.000000
0.464325 0.152893 0.000000
0.483612 0.153473 0.000000
0.505951 0.155487 0.000000
0.531616 0.154694 0.000000
0.557861 0.150665 0.000000
0.581818 0.151978 0.000000
0.604126 0.156006 0.000000
0.627441 0.157776 0.000000
0.651794 0.159790 0.000000
0.677917 0.164856 0.000000
0.704285 0.168915 0.000000
0.738861 0.173035 0.000000
0.773285 0.177185 0.000000
0.222565 0.199127 0.000000
0.228760 0.199127 0.000000
0.234741 0.197906 0.000000
0.238770 0.197906 0.000000
0.243835 0.196411 0.000000
0.255951 0.194397 0.000000
0.267761 0.193604 0.000000
0.277832 0.191589 0.000000
0.291473 0.191315 0.000000
0.305756 0.191315 0.000000
0.319305 0.186218 0.000000
0.335449 0.182190 0.000000
0.350494 0.182648 0.000000
0.367004 0.180634 0.000000
0.383545 0.179535 0.000000
0.396210 0.179260 0.000000
0.413391 0.178284 0.000000
0.431732 0.177246 0.000000
0.454071 0.175690 0.000000
0.476440 0.177246 0.000000
0.495148 0.177246 0.000000
0.516052 0.177826 0.000000
0.542480 0.178467 0.000000
0.570099 0.177032 0.000000
0.594849 0.177490 0.000000
0.618256 0.180359 0.000000
0.640594 0.181152 0.000000
0.663910 0.182129 0.000000
0.690033 0.189423 0.000000
0.716400 0.195282 0.000000
0.752197 0.199310 0.000000
0.787415 0.203430 0.000000
0.239105 0.214874 0.000000
0.246002 0.214111 0.000000
0.251923 0.214233 0.000000
0.255310 0.214874 0.000000
0.259644 0.214630 0.000000
0.270203 0.212585 0.000000
0.282715 0.210571 0.000000
0.293579 0.208557 0.000000
0.304718 0.207581 0.000000
0.318970 0.207855 0.000000
0.332581 0.207184 0.000000
0.348450 0.203278 0.000000
0.365387 0.199982 0.000000
0.381653 0.197968 0.000000
0.396881 0.196838 0.000000
0.408997 0.196838 0.000000
0.424133 0.196838 0.000000
0.442139 0.196838 0.000000
0.461273 0.198792 0.000000
0.485474 0.200806 0.000000
0.508026 0.200806 0.000000
0.528351 0.200806 0.000000
0.551788 0.202362 0.000000
0.580170 0.202362 0.000000
0.605530 0.202301 0.000000
0.629730 0.204315 0.000000
0.656342 0.207825 0.000000
0.678680 0.207825 0.000000
0.704468 0.214874 0.000000
0.730835 0.222931 0.000000
0.765076 0.227234 0.000000
0.801544 0.231262 0.000000
0.259399 0.233185 0.000000
0.267487 0.231171 0.000000
0.274139 0.230499 0.000000
0.276154 0.232513 0.000000
0.279816 0.232910 0.000000
0.286011 0.230896 0.000000
0.296967 0.228882 0.000000
0.311096 0.226868 0.000000
0.322998 0.225891 0.000000
0.337128 0.227905 0.000000
0.350739 0.227509 0.000000
0.362976 0.225494 0.000000
0.379639 0.222321 0.000000
0.397797 0.220154 0.000000
0.413177 0.219055 0.000000
0.427307 0.219055 0.000000
0.442413 0.219055 0.000000
0.460297 0.219055 0.000000
0.478455 0.221344 0.000000
0.497711 0.225159 0.000000
0.520691 0.224701 0.000000
0.542480 0.223145 0.000000
0.564148 0.225891 0.000000
0.588257 0.228729 0.000000
0.613647 0.227234 0.000000
0.637939 0.226654 0.000000
0.668793 0.233551 0.000000
0.696960 0.238251 0.000000
0.722687 0.245270 0.000000
0.748993 0.253357 0.000000
0.781036 0.257629 0.000000
0.815674 0.261688 0.000000
0.280640 0.252319 0.000000
0.286896 0.251221 0.000000
0.294586 0.249207 0.000000
0.296600 0.249664 0.000000
0.299652 0.251678 0.000000
0.307098 0.250946 0.000000
0.313629 0.248535 0.000000
0.326202 0.246002 0.000000
0.340363 0.245026 0.000000
0.354523 0.247040 0.000000
0.368652 0.247772 0.000000
0.381134 0.245758 0.000000
0.394928 0.244507 0.000000
0.412994 0.242493 0.000000
0.428406 0.241302 0.000000
0.442688 0.241302 0.000000
0.461609 0.242218 0.000000
0.479492 0.242218 0.000000
0.497528 0.242645 0.000000
0.515839 0.246796 0.000000
0.534760 0.249908 0.000000
0.556976 0.247894 0.000000
0.581055 0.249054 0.000000
0.603394 0.253113 0.000000
0.625366 0.255371 0.000000
0.649719 0.253357 0.000000
0.681488 0.258636 0.000000
0.713898 0.266693 0.000000
0.742828 0.274780 0.000000
0.769043 0.282837 0.000000
0.798340 0.287140 0.000000
0.830780 0.291168 0.000000
0.302979 0.272491 0.000000
0.307007 0.272491 0.000000
0.312866 0.271393 0.000000
0.314880 0.269379 0.000000
0.317932 0.269836 0.000000
0.328033 0.271851 0.000000
0.335846 0.270752 0.000000
0.343903 0.266693 0.000000
0.356506 0.265198 0.000000
0.370789 0.267212 0.000000
0.384918 0.267944 0.000000
0.399048 0.265930 0.000000
0.413086 0.264679 0.000000
0.429382 0.264679 0.000000
0.444702 0.263641 0.000000
0.456787 0.263641 0.000000
0.476074 0.264679 0.000000
0.499786 0.266571 0.000000
0.517822 0.266571 0.000000
0.536011 0.266998 0.000000
0.554321 0.271088 0.000000
0.573242 0.274109 0.000000
0.598267 0.274841 0.000000
0.623718 0.277313 0.000000
0.644440 0.281342 0.000000
0.665863 0.283630 0.000000
0.698334 0.288239 0.000000
0.732056 0.295074 0.000000
0.762726 0.303162 0.000000
0.791382 0.311218 0.000000
0.817749 0.315521 0.000000
0.847046 0.319550 0.000000
0.327118 0.292603 0.000000
0.331238 0.293640 0.000000
0.334869 0.293518 0.000000
0.335114 0.291473 0.000000
0.337891 0.289978 0.000000
0.347229 0.291992 0.000000
0.356934 0.293640 0.000000
0.364990 0.290863 0.000000
0.375702 0.288391 0.000000
0.390991 0.290405 0.000000
0.404541 0.291138 0.000000
0.418304 0.289124 0.000000
0.432434 0.287872 0.000000
0.448425 0.287872 0.000000
0.463806 0.287872 0.000000
0.476044 0.287872 0.000000
0.494202 0.289917 0.000000
0.518188 0.291901 0.000000
0.536987 0.291779 0.000000
0.555145 0.291779 0.000000
0.575378 0.294250 0.000000
0.593658 0.298279 0.000000
0.616425 0.301971 0.000000
0.642792 0.304016 0.000000
0.665649 0.306488 0.000000
0.685822 0.310516 0.000000
0.717529 0.318359 0.000000
0.751953 0.324554 0.000000
0.781860 0.332367 0.000000
0.812256 0.340454 0.000000
0.838837 0.344727 0.000000
0.865204 0.348785 0.000000
0.352936 0.312592 0.000000
0.357117 0.314606 0.000000
0.360840 0.315491 0.000000
0.358826 0.313477 0.000000
0.359894 0.311981 0.000000
0.367950 0.313995 0.000000
0.376923 0.315613 0.000000
0.384979 0.315613 0.000000
0.395691 0.314331 0.000000
0.414001 0.316376 0.000000
0.428497 0.317078 0.000000
0.440613 0.315063 0.000000
0.454407 0.313812 0.000000
0.468536 0.313812 0.000000
0.483673 0.313812 0.000000
0.497925 0.313812 0.000000
0.516205 0.315887 0.000000
0.540039 0.319855 0.000000
0.558655 0.319641 0.000000
0.573151 0.317719 0.000000
0.593781 0.320221 0.000000
0.615509 0.324249 0.000000
0.637909 0.328278 0.000000
0.662659 0.331940 0.000000
0.686005 0.333954 0.000000
0.707825 0.336487 0.000000
0.739502 0.345520 0.000000
0.773926 0.354462 0.000000
0.803101 0.362305 0.000000
0.832275 0.370361 0.000000
0.858765 0.374664 0.000000
0.885071 0.378693 0.000000
0.380188 0.337219 0.000000
0.383179 0.338135 0.000000
0.387207 0.339996 0.000000
0.387146 0.338959 0.000000
0.386688 0.337463 0.000000
0.395691 0.339478 0.000000
0.403748 0.341125 0.000000
0.411835 0.341125 0.000000
0.419891 0.341644 0.000000
0.435211 0.343658 0.000000
0.453491 0.343079 0.000000
0.467010 0.340149 0.000000
0.479919 0.341248 0.000000
0.494049 0.342224 0.000000
0.508209 0.342224 0.000000
0.522491 0.342224 0.000000
0.540680 0.344269 0.000000
0.564423 0.348236 0.000000
0.587433 0.350037 0.000000
0.601685 0.348022 0.000000
0.619720 0.351929 0.000000
0.641937 0.355988 0.000000
0.664459 0.360016 0.000000
0.688812 0.364044 0.000000
0.712799 0.367706 0.000000
0.735107 0.369720 0.000000
0.765015 0.376129 0.000000
0.799438 0.386353 0.000000
0.830841 0.394714 0.000000
0.859222 0.402771 0.000000
0.888977 0.410400 0.000000
0.915222 0.414429 0.000000
0.408569 0.365601 0.000000
0.410583 0.365601 0.000000
0.413422 0.366394 0.000000
0.415466 0.366394 0.000000
0.416962 0.365845 0.000000
0.427185 0.367889 0.000000
0.436188 0.369507 0.000000
0.444244 0.369507 0.000000
0.452332 0.370026 0.000000
0.460388 0.372040 0.000000
0.475708 0.371460 0.000000
0.493988 0.365417 0.000000
0.508301 0.365601 0.000000
0.522430 0.371643 0.000000
0.536621 0.372620 0.000000
0.550873 0.372620 0.000000
0.569061 0.374695 0.000000
0.590912 0.378662 0.000000
0.613800 0.380432 0.000000
0.636139 0.380432 0.000000
0.654022 0.384613 0.000000
0.674347 0.392426 0.000000
0.696625 0.396484 0.000000
0.719238 0.400513 0.000000
0.743591 0.404541 0.000000
0.767548 0.408203 0.000000
0.796387 0.413574 0.000000
0.827820 0.420807 0.000000
0.860504 0.429138 0.000000
0.891632 0.437225 0.000000
0.923798 0.447174 0.000000
0.953827 0.454926 0.000000
0.439423 0.396454 0.000000
0.441467 0.396454 0.000000
0.443726 0.396454 0.000000
0.447968 0.396454 0.000000
0.449738 0.396454 0.000000
0.454987 0.397491 0.000000
0.466003 0.399902 0.000000
0.476654 0.401611 0.000000
0.484741 0.400574 0.000000
0.492828 0.400421 0.000000
0.503540 0.403748 0.000000
0.521240 0.401245 0.000000
0.538696 0.395966 0.000000
0.553284 0.399719 0.000000
0.567413 0.404846 0.000000
0.581665 0.405518 0.000000
0.596832 0.407562 0.000000
0.618073 0.411530 0.000000
0.639069 0.413330 0.000000
0.661285 0.413330 0.000000
0.686005 0.415802 0.000000
0.706177 0.423889 0.000000
0.732788 0.432922 0.000000
0.755096 0.436981 0.000000
0.772736 0.441010 0.000000
0.797089 0.445038 0.000000
0.828827 0.454529 0.000000
0.859222 0.460724 0.000000
0.887573 0.463593 0.000000
0.920013 0.471649 0.000000
0.946228 0.484100 0.000000
0.978668 0.494202 0.000000
0.471863 0.428894 0.000000
0.473877 0.428894 0.000000
0.476166 0.428894 0.000000
0.482208 0.428894 0.000000
0.486176 0.428894 0.000000
0.486176 0.428894 0.000000
0.492218 0.430328 0.000000
0.506500 0.434357 0.000000
0.517151 0.434998 0.000000
0.525238 0.430969 0.000000
0.535950 0.432129 0.000000
0.552216 0.438202 0.000000
0.569092 0.436462 0.000000
0.585236 0.432404 0.000000
0.599823 0.435272 0.000000
0.613953 0.439301 0.000000
0.629120 0.442017 0.000000
0.645142 0.445984 0.000000
0.665436 0.447784 0.000000
0.685760 0.447784 0.000000
0.710358 0.450256 0.000000
0.736572 0.454285 0.000000
0.763702 0.463715 0.000000
0.793579 0.473419 0.000000
0.809937 0.477448 0.000000
0.825500 0.481506 0.000000
0.857971 0.492157 0.000000
0.891632 0.503235 0.000000
0.918427 0.504028 0.000000
0.946228 0.506104 0.000000
0.969238 0.519836 0.000000
0.994812 0.532684 0.000000
0.509766 0.464050 0.000000
0.513245 0.465424 0.000000
0.515259 0.465302 0.000000
0.518829 0.464050 0.000000
0.524628 0.464050 0.000000
0.526855 0.464050 0.000000
0.529175 0.464447 0.000000
0.542389 0.467499 0.000000
0.555054 0.470490 0.000000
0.563141 0.468170 0.000000
0.573212 0.466064 0.000000
0.588745 0.470673 0.000000
0.601868 0.473633 0.000000
0.615662 0.470184 0.000000
0.635498 0.470673 0.000000
0.651947 0.475189 0.000000
0.664948 0.479187 0.000000
0.680267 0.483154 0.000000
0.700867 0.487183 0.000000
0.721710 0.487701 0.000000
0.741943 0.491394 0.000000
0.767792 0.495575 0.000000
0.794098 0.498230 0.000000
0.824524 0.508331 0.000000
0.849762 0.513916 0.000000
0.864044 0.517944 0.000000
0.891846 0.529999 0.000000
0.926270 0.542236 0.000000
0.944000 0.550659 0.000000
0.970215 0.550659 0.000000
0.977661 0.559753 0.000000
1.000000 0.573883 0.000000
0.550262 0.500519 0.000000
0.554413 0.502533 0.000000
0.557892 0.503754 0.000000
0.559906 0.501740 0.000000
0.563232 0.500519 0.000000
0.567261 0.500519 0.000000
0.571838 0.500885 0.000000
0.583923 0.502930 0.000000
0.595551 0.504944 0.000000
0.603638 0.504944 0.000000
0.613708 0.504547 0.000000
0.627960 0.506561 0.000000
0.640350 0.508057 0.000000
0.648407 0.506042 0.000000
0.665894 0.507141 0.000000
0.690247 0.513184 0.000000
0.705597 0.517670 0.000000
0.717499 0.521637 0.000000
0.737335 0.525635 0.000000
0.761688 0.529694 0.000000
0.782440 0.533905 0.000000
0.802612 0.539978 0.000000
0.828552 0.542755 0.000000
0.854919 0.544800 0.000000
0.880829 0.550385 0.000000
0.904541 0.554413 0.000000
0.931824 0.566711 0.000000
0.962738 0.580719 0.000000
0.977722 0.591064 0.000000
0.992554 0.599213 0.000000
0.994263 0.606781 0.000000
1.000000 0.616394 0.000000
0.593842 0.538483 0.000000
0.596405 0.540497 0.000000
0.600433 0.542511 0.000000
0.602478 0.543213 0.000000
0.605774 0.541718 0.000000
0.614777 0.542969 0.000000
0.618408 0.542572 0.000000
0.625000 0.542389 0.000000
0.636047 0.544403 0.000000
0.644135 0.545380 0.000000
0.656799 0.546661 0.000000
0.674438 0.549530 0.000000
0.686310 0.550781 0.000000
0.694397 0.549469 0.000000
0.707062 0.550201 0.000000
0.729645 0.555664 0.000000
0.749664 0.559601 0.000000
0.762543 0.563110 0.000000
0.779053 0.566010 0.000000
0.802643 0.569672 0.000000
0.829468 0.576263 0.000000
0.850708 0.582581 0.000000
0.872253 0.591370 0.000000
0.898346 0.593903 0.000000
0.920227 0.597443 0.000000
0.944580 0.601471 0.000000
0.951233 0.609161 0.000000
0.981628 0.623413 0.000000
0.987122 0.632538 0.000000
0.999207 0.642639 0.000000
1.000000 0.649445 0.000000
1.000000 0.657501 0.000000
0.638519 0.576935 0.000000
0.640533 0.578949 0.000000
0.642975 0.580994 0.000000
0.644989 0.583008 0.000000
0.648285 0.584229 0.000000
0.660400 0.586243 0.000000
0.669006 0.587097 0.000000
0.671021 0.585083 0.000000
0.676544 0.584900 0.000000
0.684631 0.586914 0.000000
0.697296 0.589172 0.000000
0.719604 0.593231 0.000000
0.734894 0.595306 0.000000
0.742950 0.595306 0.000000
0.755646 0.596741 0.000000
0.773926 0.600769 0.000000
0.792175 0.604156 0.000000
0.808075 0.606140 0.000000
0.825623 0.608521 0.000000
0.845917 0.610535 0.000000
0.871979 0.616760 0.000000
0.900360 0.624969 0.000000
0.922974 0.634033 0.000000
0.945160 0.644104 0.000000
0.966766 0.648163 0.000000
0.987091 0.652191 0.000000
0.991791 0.659485 0.000000
0.993744 0.667938 0.000000
0.997650 0.676819 0.000000
0.999207 0.685150 0.000000
1.000000 0.691589 0.000000
1.000000 0.698151 0.000000
0.692841 0.625183 0.000000
0.693237 0.625580 0.000000
0.695129 0.627472 0.000000
0.695648 0.627991 0.000000
0.698181 0.630280 0.000000
0.706299 0.633667 0.000000
0.717621 0.634491 0.000000
0.723358 0.631256 0.000000
0.727966 0.630280 0.000000
0.738251 0.632294 0.000000
0.746338 0.634949 0.000000
0.761749 0.638977 0.000000
0.783295 0.643066 0.000000
0.796509 0.644836 0.000000
0.806396 0.646637 0.000000
0.822510 0.650696 0.000000
0.840668 0.652649 0.000000
0.857208 0.654022 0.000000
0.873230 0.657135 0.000000
0.892487 0.659668 0.000000
0.915283 0.662933 0.000000
0.942871 0.670349 0.000000
0.952026 0.675720 0.000000
0.971344 0.685028 0.000000
0.977081 0.693634 0.000000
0.996063 0.697906 0.000000
1.000000 0.705200 0.000000
1.000000 0.713287 0.000000
1.000000 0.716583 0.001617
1.000000 0.724640 0.001617
1.000000 0.732483 0.008148
1.000000 0.738678 0.008148
0.749481 0.675781 0.000000
0.749481 0.675781 0.000000
0.749725 0.676025 0.000000
0.749725 0.676025 0.000000
0.750793 0.676819 0.000000
0.756989 0.680847 0.000000
0.764313 0.683075 0.000000
0.772369 0.679047 0.000000
0.780701 0.676819 0.000000
0.792816 0.678833 0.000000
0.803101 0.681519 0.000000
0.811188 0.685547 0.000000
0.825806 0.689636 0.000000
0.846130 0.693787 0.000000
0.861176 0.697388 0.000000
0.873291 0.701416 0.000000
0.889252 0.703369 0.000000
0.907257 0.703369 0.000000
