assets/luts/0001.CUBE
#Created by: Adobe Photoshop Export Color Lookup Plugin
TITLE "Untitled-1"
#LUT size
LUT_3D_SIZE 5
#data domain
#LUT data points
DOMAIN_MIN 0.000000 0.000000 0.000000
DOMAIN_MAX 0.903226 0.903226 0.903226
0.027344 0.027344 0.027344
0.165710 0.041412 0.039337
0.330719 0.002991 0.002991
0.464050 0.000000 0.000000
0.625122 0.000000 0.000000
0.159973 0.136963 0.005981
0.232971 0.128235 0.004486
0.348785 0.108948 0.000000
0.487762 0.083801 0.000000
0.651917 0.090637 0.000000
0.280640 0.252319 0.000000
0.326202 0.246002 0.000000
0.428406 0.241302 0.000000
0.556976 0.247894 0.000000
0.742828 0.274780 0.000000
0.471863 0.428894 0.000000
0.506500 0.434357 0.000000
0.599823 0.435272 0.000000
0.736572 0.454285 0.000000
0.918427 0.504028 0.000000
0.800964 0.724731 0.000000
0.824219 0.734741 0.000000
0.907990 0.744385 0.000000
0.992157 0.764771 0.000000
1.000000 0.798218 0.008789
0.079620 0.032837 0.036224
0.197266 0.031616 0.053436
0.331299 0.013214 0.007507
0.461639 0.000000 0.000000
0.630798 0.000000 0.000000
0.187317 0.130646 0.009003
0.247101 0.126740 0.005981
0.354218 0.107117 0.000000
0.486267 0.091553 0.000000
0.654602 0.091339 0.000000
0.304657 0.247498 0.000000
0.339478 0.246002 0.000000
0.435059 0.240723 0.000000
0.563934 0.249390 0.000000
0.746735 0.269165 0.000000
0.491821 0.428253 0.000000
0.521729 0.430176 0.000000
0.603790 0.437622 0.000000
0.747223 0.459961 0.000000
0.925568 0.509705 0.000000
0.813629 0.718658 0.000000
0.845612 0.723877 0.000000
0.917114 0.744568 0.000000
0.994110 0.767975 0.026489
1.000000 0.795441 0.075378
0.184753 0.030823 0.066406
0.252594 0.016205 0.067566
0.356293 0.005981 0.045044
0.472931 0.000000 0.015228
0.636505 0.000000 0.027069
0.244690 0.120422 0.038635
0.287323 0.118927 0.033813
0.376251 0.103210 0.015625
0.499786 0.091553 0.012085
0.663361 0.113617 0.016724
0.337402 0.244507 0.000000
0.367462 0.239502 0.000000
0.453674 0.242218 0.000000
0.582367 0.246552 0.000000
0.758423 0.277832 0.005463
0.522247 0.426544 0.000000
0.550079 0.428894 0.000000
0.630676 0.437622 0.000000
0.758423 0.459747 0.000000
0.944000 0.510223 0.032806
0.846008 0.723419 0.091797
0.866974 0.724335 0.099121
0.935730 0.743927 0.110992
0.996094 0.767578 0.136505
1.000000 0.796478 0.173737
0.282288 0.000000 0.092712
0.312988 0.001312 0.090302
0.394257 0.000000 0.083344
0.506622 0.000000 0.073181
0.664368 0.000000 0.082092
0.309937 0.106262 0.077026
0.339142 0.103027 0.075531
0.412750 0.099304 0.071808
0.534271 0.078033 0.071045
0.689911 0.119537 0.081726
0.390594 0.236389 0.040100
0.419189 0.236511 0.041443
0.491058 0.240662 0.044769
0.613739 0.249573 0.060547
0.781219 0.286163 0.087646
0.571350 0.421509 0.039307
0.602051 0.430634 0.041718
0.671783 0.446198 0.058563
0.792786 0.466003 0.094238
0.966858 0.517365 0.156586
0.886261 0.728638 0.192474
0.910065 0.731049 0.198730
0.958405 0.745117 0.211273
1.000000 0.774475 0.240875
1.000000 0.798767 0.260315
0.361786 0.000000 0.119476
0.385620 0.000000 0.117706
0.450500 0.000000 0.115173
0.557434 0.000000 0.116943
0.708008 0.000000 0.132172
0.384766 0.081421 0.112762
0.407623 0.078766 0.110626
0.471710 0.079773 0.112823
0.577759 0.076874 0.116089
0.733429 0.117065 0.136078
0.460205 0.233429 0.101227
0.485474 0.237396 0.101410
0.553223 0.241364 0.109161
0.661469 0.259155 0.124603
0.826996 0.293915 0.156769
0.641846 0.431763 0.128235
0.660797 0.434814 0.132874
0.729279 0.448608 0.147919
0.840729 0.483124 0.175812
0.987610 0.534760 0.228119
0.939575 0.736450 0.263123
0.949615 0.743866 0.269989
0.989258 0.755280 0.283203
1.000000 0.779022 0.300720
1.000000 0.803040 0.326111
